static char * trollcoin32_xpm[] = {
"32 32 64 1",
" 	c None",
"!	c #D3B91A",
"#	c #D7CE27",
"$	c #C6BE26",
"%	c #EFE762",
"&	c #D4AC0E",
"'	c #C1A910",
"(	c #BE9B09",
")	c #A48C1D",
"*	c #A49A20",
"+	c #C1B720",
",	c #D3A10F",
"-	c #F4CE10",
".	c #9D7E0D",
"/	c #B7AF20",
"0	c #F8E619",
"1	c #695B1B",
"2	c #A08802",
"3	c #AB9806",
"4	c #BD9109",
"5	c #967005",
"6	c #816009",
"7	c #E7C210",
"8	c #F9DB05",
"9	c #D4C217",
":	c #EED81C",
";	c #867700",
"<	c #A0B015",
"=	c #B98907",
">	c #ECB804",
"?	c #F6C706",
"@	c #FFFC03",
"A	c #F9E707",
"B	c #D59B07",
"C	c #EDD706",
"D	c #F6AB00",
"E	c #190D0D",
"F	c #3A371A",
"G	c #F0AB26",
"H	c #C37F19",
"I	c #5E0000",
"J	c #790F06",
"K	c #A00600",
"L	c #FFFFCB",
"M	c #7D3C01",
"N	c #C60200",
"O	c #B90000",
"P	c #A40000",
"Q	c #7E731F",
"R	c #000000",
"S	c #D30000",
"T	c #E50000",
"U	c #EC0000",
"V	c #FF0000",
"W	c #C80000",
"X	c #B64C20",
"Y	c #F1B81E",
"Z	c #E00000",
"[	c #EB0201",
"]	c #F90000",
"^	c #DA0000",
"_	c #D70200",
"`	c #EACA0A",
"a	c #F2C10B",
"             !!#$#%             ",
"          &'(')$#*)*+#          ",
"        &,-'.*/#0$/123/#        ",
"      ,45678977::::$*+;<$%      ",
"     4=66(>>?88??@AA0://39%     ",
"    =2.2(BBBBB>CA9C@A@@#$@9%    ",
"   4=52BBB>>DDB>2EF9@C''003*%   ",
"   B=5B==&(32&?>(1FE1FFEC0/;+   ",
"  ==BGHIJKIEF12(;FL%;*)FC@#*2$  ",
"  BM5>6KKNKIIONPKIQ*R1L/@80/Q/  ",
" =26(>MKKOOKPNSTUVTWOJXQ'C@#**$ ",
" =65YGMPONOSTSNNSZ[]]VU^OM50/*$ ",
" =62GGJOON__SS^SW_UTTT[U]VO3#Q/ ",
"3,62?>MKKKPNSS^_WZUUZ^ZUU[W'0#9$",
"3734>?73=226KTSW^UUU[ZT]]NI*0::$",
"3-&4`?88????M_N^UTUU^UV]TJFQA)*#",
"3-,(?aYYY>>BK^_TTTUSMMPTUJF9A)/$",
"3-,=G>YY%GY2OTZZZT]K&`'6KP1AC*+$",
"2:&=Y?>YY>YMWSNS_ZUM16A8C'CA9.+$",
" :`=`?aG>a9JTWWSW^Z6FFCA888A7## ",
" !8(&?aY>?(P^OSWW_W5'F!0`CA8809 ",
" 30(=8??a?5ONPOOS_O3@1'8C-8CC:$ ",
"  #66`?>>>MWSPKO^ZK3;1:`C--C0:  ",
"  '+;2?>D>MSWPOS_TJF;`aY-87CC9  ",
"   :.4(>D(JSOKNNSZM0A>`-8`CC`   ",
"   .:&62DBJSOKNO_N5AY>a8(38C+   ",
"    3+565B5JKPWS^J$Y,Y7=2277    ",
"     ./.;6=25MMMM(-Y&H(;.`&     ",
"      5,)555=2('972.Q;2'&'      ",
"        HGH=>6;;;&;2;3'&        ",
"          4!Y+!937&'&(          ",
"             3''4=3             "
};
