static char * trollcoin64_xpm[] = {
"64 64 63 1",
" 	c None",
"!	c #E3CA56",
"#	c #EACA19",
"$	c #F3DF16",
"%	c #F7EA3A",
"&	c #F5F2AE",
"'	c #FBF316",
"(	c #F2CA08",
")	c #D9AC02",
"*	c #B9AA02",
"+	c #8C8302",
",	c #735D08",
"-	c #A9940E",
".	c #897001",
"/	c #DEC809",
"0	c #EDB502",
"1	c #D19906",
"2	c #635B13",
"3	c #C4AE10",
"4	c #7F711E",
"5	c #4B4509",
"6	c #F3C402",
"7	c #EDB000",
"8	c #8A864A",
"9	c #94600E",
":	c #4B3F01",
";	c #E8A802",
"<	c #FAE906",
"=	c #FEF604",
">	c #F8E004",
"?	c #F6D303",
"@	c #BAAE63",
"A	c #A77E06",
"B	c #F4CD03",
"C	c #F1DA05",
"D	c #E8CB02",
"E	c #260F01",
"F	c #231921",
"G	c #E3C002",
"H	c #000000",
"I	c #41403F",
"J	c #F3B03B",
"K	c #ECB309",
"L	c #3A0000",
"M	c #720000",
"N	c #D18A19",
"O	c #970000",
"P	c #C80000",
"Q	c #C20000",
"R	c #CD0000",
"S	c #DC0000",
"T	c #AD0000",
"U	c #B10100",
"V	c #EF0000",
"W	c #EB0000",
"X	c #EC0100",
"Y	c #E70000",
"Z	c #D10000",
"[	c #B80000",
"]	c #D70000",
"^	c #E20000",
"_	c #FD0000",
"`	c #000037",
"                                !                               ",
"                        !###$#####$%%%%&                        ",
"                     ##'()*+,+----,,.-*#%%&                     ",
"                   /(01.,2--32#%%%344425,-/%%                   ",
"                 )67-3-44$2#%4-%%$%83'2+,/.,*'%                 ",
"               1079,$%$'2#-2-3%%%%%23$::/./-5+*%&               ",
"              );9.34$#($.-$)3$$$%%%!%!8-+5<=2*2,/%              ",
"            -)1995.:->($$>(6?((?><<'<<'%!@4*+*2%-+%&            ",
"           -711:*A*11((6B>CC>C(66C<<<<>><'%!%:/'-5+$&           ",
"          -1A:5A:..?60;776??CCCDBBC<<<<<<<='%@-*2<'+/&          ",
"         -1A.;A.A10))711;;066BCCC>=<<><<<''<<'!4-<='+/!         ",
"        -1,A,0--07111111)111)06CCC/,3=><''<<<<=%83'=$2/&        ",
"       A7.:A,:A;1111)1;1111))1;0>-EFE+<<<<<=====%%'=$+5$&       ",
"       )1.1;A);11A107;76070;;11;GHHFIF5<==C3-,5-='%'C2,,%&      ",
"      1A1.2..;;;;70?66?GGBG60;10*:,5FFI5235HHFFH3='!:/'2+%      ",
"     A;A11..77A.+A*/-5*5,,5?B7;;6<-I8IFHH:E22FII3==%!=-5+3&     ",
"     11AA)0JK+LMMMLLEIEI5II)>??6>AH@&&@F//++-*FF/='=%823$5%&    ",
"    A1.A1KN!J:OPOQRSQIHFLIFL:5,+*EHH&&&8*48&@IE+=><'=!'-:,*%    ",
"    6A:..A;11:TTMOUTRLEEMIOVQTOMLEHH8&&@EHI&&&2<><><='@2#35'&   ",
"   A6A.E:1)11EOOOTTTQOMMMEPSWVVXWYZTMLFIHHHI&&8*<C><<=%3224+%   ",
"   11,...6)1ALTTOOTT[[OMMOQ[P]^SSYV___^QOMLF8@8*==<<<<'84$34%   ",
"  A1-A:51(#;ALTTOO[UUTUTRSPQQQZS^^YWWWV____ZOML:4*C==<<%43323!  ",
"  A1::11)0;;.L[TTUP[UUURS^]PPQ[RZ^^YXWWWWWV____ZOLE2-<<'8-48-%  ",
"  1AAA:.6J&J,MUO[QQPQQRSSS]]]PQPPZ^YWXWWWWWWWWV___YUM:/<%88%-$  ",
" .;A:,AAKJ&J2MQOU[[[PZ]]S]ZSS]RPPP]YVVXYYWWWYVVVVV___O5=%-384/! ",
" -B5A-,1KJ;0:MR[TU[[RRZRS]ZZZ]S]QPQ^VVX^^Y^^^YWYWVVW_Z:='!422*% ",
" */.71:K6B66:MZ^RQ[QRPPP]RP]S]S^ZQRYXWVW^^^^^YWWWVW^_[5='3-%'+% ",
" *K82:,70006+EMMMMMMOU]YSPP]SZRZZRYVXWVV^S^SS^VVVVV__T,=C%'$'-# ",
" /KK+-A)0666B*.,,,,:::LLO^]S]]RQZ^WWWWWWW^^SSWVVV_UMUL-=C#'$'-# ",
"5G/)B)AG)66BC??666?B66)-ETY^]ZRP]WYYXVXY^WYYWVVVV__OFII-<$3$'3/%",
",G/##-A)GD6(??BDG;;06606+MV]RQZSYWYYWWXWS^YWVVVV_^OQMFI2<$4433/%",
",D#DD-AGGGB????6B06770062OYZQQ]YWYYYYWXYVV_VWWVVVSMFIF2<<$$4I4D%",
"2//D#AAGG((B##(J6B60006;EQZPZS^^YYYYWXWXMLM[__VX_TLMLI4<<$44%3/!",
"2DJKJ1AKK(K0KKBKK0B6606AL^Z]^^^YYYWWWW_T:3+:LOY_V_OFI2><<$-3#-/@",
"5GJGGN.);0D0;#BK&!KJ7;6,OX]]S^^^^^YYWY_M-#<<3,LMP___:F*=<$4222$@",
" )#/GN9;!J0B0JKJ&JK!JK6:QSZSSSSSSS^YWXYL/B-*<<D+:LMOE/<<<#+'%3# ",
" *#/)N97JJ6B0;66KK07JJ*L^R]]ZR]S]]^YWVQ:/,:)B(?>=3+,/=<>>/23#-# ",
" *%/DG.166D6000!K00666.M^P]R[[PS]]S^Y_O,*H:*>BB?><<<<C><<3,2I-# ",
" +$#G(+A6BB60JJJK0J#K!:TYS]PQZZZPQ^S^_M+-FH+C>>>>DDC>>C><+3'!3# ",
" ,$#DG*A6(BBB(#006K#6/LSS]ZZZ]]]RR^SSVM*:IIH3%>>>DGBCC>>BC#%#/! ",
"  G!CDG.666>(6J#00GG(-LYZZQQS]ZRPQ]S^YL//FIF*$$CDDDDCCC<D<'%3C  ",
"  *%#DBA160?6KJB60GK#2O^ZP[UPZQQZPZR^R:C=*+F-%%CD(B>><<CD''%3#  ",
"  .$%DD)A????6B66B0K(:[]R[OUQ[[[R]ZP^U:<C=/F-<CBBCC>><<DCC'#/#  ",
"   G!DB-:G>BB66B6600)LZPR[O[[T[PZZZRYO,<D=.F/>$(BC>#J>C/>('3$   ",
"   .%-5:..>?B66B00;6-L^]][OTOOOPSS]]YM+=<*F,%J6BBDC##>GC>$#/#   ",
"   :<@.BA:)?B0700;;6.M]ZZZ[TOOTPSS]RYM+*.F2D!!B#(#$C#(G<C$3>#   ",
"    -%8.,.A6B;000;;62OZP]Z[TT[RR]SSZSLFF`5DDGB?##(C>$)C><#//    ",
"    :>@1A1.,?60;;0;7:OZRR[TOTQ]R]SS^RE5+*>BGG#JJ#>C>GDCC$3C8    ",
"     .'%,,A.A?;77;1;:UZZPUTT[RQQZZ]XT:'<'BJKG(B(#>>G)<C>/D3     ",
"      *%8A(?A-6;;;11:UQRPTOOQZQ[]]]XM+<C#DGGGDC?B>G)<CC//#      ",
"      5?!KG6A:A0;;11ETQRPTMOQZ[Q]Z]YL3$C6#60G6DDCB+-<CC3<8      ",
"       ,>!K1,A:A0;1;:T][[OOOPR[RRR][:>C#JJ##KJ#?G,,<C(3>3       ",
"        .$@9.A)E.7;;.L[PQUTUQQRRZRXM+%DJJ;J7((6*,-,.D3C/        ",
"         .K@,15A,,17;.ELMOU]^^YYYVOE#&K01)J!66-.ABC:+>/         ",
"          ,K!2,A6.:.17;A,:LLMMOOOME/$K#K1KK!-,+,.2D*>/          ",
"           51!4A15.,A,1;;;A..,252+D>/KK0J)-9GAA*-.)>)           ",
"            2;J@5.,),,::9A11;?<<<<>?6G)A8,-:)<.*.G?*            ",
"             :AJ!3..,61A1.:.,A-****-,22,,,**:-.G>D+             ",
"               ,1J!N,A:106,*:*2,,./*+,-D,,,3.+D?*               ",
"                E.;J@841)6..,-D-./DG6..>,.+A(>3.                ",
"                  :.;#%!J#++.,=,+**G)+2/33GD-,                  ",
"                    :,AG#J%%!!%8--3####(61.2                    ",
"                       :,.-3/($$#(K))-A.2                       ",
"                            ::,,222:                            "
};
