static char * trollcoin16_xpm[] = {
"16 16 60 1",
" 	c None",
"!	c #A99C1A",
"#	c #C2B01F",
"$	c #BFB93E",
"%	c #B0890B",
"&	c #DFC00F",
"'	c #CFAC14",
"(	c #DBCF16",
")	c #F9E812",
"*	c #B1A821",
"+	c #A78109",
",	c #BB8C05",
"-	c #ECB60F",
".	c #F4C606",
"/	c #EEC903",
"0	c #F5DE0A",
"1	c #D2C625",
"2	c #BD8C05",
"3	c #C39B0A",
"4	c #6C6421",
"5	c #ACA906",
"6	c #7F7F00",
"7	c #E1DA18",
"8	c #C0B618",
"9	c #A07701",
":	c #8C3E0D",
";	c #A90A00",
"<	c #601F11",
"=	c #BD4802",
">	c #7E7335",
"?	c #8E9232",
"@	c #CE9A12",
"A	c #941B04",
"B	c #B60100",
"C	c #C30000",
"D	c #CB0000",
"E	c #DF0000",
"F	c #C00405",
"G	c #CF8502",
"H	c #EAAB19",
"I	c #D70000",
"J	c #D20300",
"K	c #F40101",
"L	c #E90000",
"M	c #C5A60C",
"N	c #E0B705",
"O	c #D6A609",
"P	c #CDB712",
"Q	c #F8C119",
"R	c #9C920B",
"S	c #D0BE18",
"T	c #BC5B0E",
"U	c #B82108",
"V	c #AA9712",
"W	c #F2D112",
"X	c #EFC30C",
"Y	c #AD7D13",
"Z	c #B59508",
"[	c #B89D0C",
"]	c #BC9215",
"      !#$!      ",
"    %&'()*!*    ",
"  +%,-.//0)((1  ",
"  2,333/445678  ",
" 93:;<<=:>4?)1! ",
"99@ABBCDEEF=G&*$",
"++HA;CIJJKKKL=7#",
"'M/NO2;ILLIKF47#",
"P@-QQOBELJ+=ARS*",
"PO--QTDJEU40&0S#",
"8&N./=CFD=RP00)1",
" V%.NUBBE:VQW0( ",
"  ',O;BDC,WXP0  ",
"  VY9:AU=&HZ[P  ",
"    Y]ZRPZ+[    ",
"     ]M[[[Z     "
};
