static char * trollcoin256_xpm[] = {
"256 256 63 1",
" 	c None",
"!	c #FCF585",
"#	c #BAB04A",
"$	c #D6CF4D",
"%	c #FADE5B",
"&	c #FEFEFE",
"'	c #F3E234",
"(	c #F1B722",
")	c #E7CF19",
"*	c #F2CE0A",
"+	c #EDD41C",
",	c #F8E30F",
"-	c #F8E307",
".	c #F8D403",
"/	c #F3DA03",
"0	c #D5B00A",
"1	c #F3DD06",
"2	c #EDB903",
"3	c #EDB301",
"4	c #EDCC02",
"5	c #EEBD02",
"6	c #FDFA1B",
"7	c #FCF109",
"8	c #F2CD03",
"9	c #F2CC02",
":	c #FBEF1F",
";	c #FAEC08",
"<	c #F8E404",
"=	c #E2AE02",
">	c #E2B508",
"?	c #FEF90A",
"@	c #C89B06",
"A	c #96821A",
"B	c #665211",
"C	c #463F19",
"D	c #3E1E07",
"E	c #201C0E",
"F	c #CE8F06",
"G	c #140A04",
"H	c #797235",
"I	c #EBAE02",
"J	c #070705",
"K	c #00000A",
"L	c #E2AE01",
"M	c #000000",
"N	c #030101",
"O	c #CD7B14",
"P	c #E49D09",
"Q	c #030000",
"R	c #B20000",
"S	c #D80000",
"T	c #DD0000",
"U	c #C80000",
"V	c #C00000",
"W	c #D40000",
"X	c #CE0000",
"Y	c #970000",
"Z	c #E80000",
"[	c #F50000",
"]	c #F00000",
"^	c #EC0000",
"_	c #FF0000",
"`	c #E30000",
"                                                                                                                                                                                                                                                                ",
"                                                                                                                                                                                                                                                                ",
"                                                                                                                        !!!#!!!!!!!!!###                                                                                                                        ",
"                                                                                                              !$$$$$$$$$$$$$$$$%%%$%!#####!!!!!&!&                                                                                                              ",
"                                                                                                        !#####$$''(()*+,**,-,,.//..*'%%%%'%%%%!!!!!!!!!!                                                                                                        ",
"                                                                                                    ###$$(())0*.1*2334,,154*,,411*,,1,67-1---,,+''%%%%!!%&!!!                                                                                                   ",
"                                                                                                #####0)*2258/.******5,,,,*98,,,77,66:,66;;;;;,1/<:7766:,,'!!!!##!                                                                                               ",
"                                                                                            ####%$(+,/52=>5,*51,,,;..,7,,,855*:,,,:,+::;;;7?6?77?666:,-<-<-,'!!!!!&&                                                                                            ",
"                                                                                         ##$$)+*18584**591.--911*>0@AAABBBCCCDCCCCCCDCBBBBAAA@0)1,77?7??7;;<<-,:%%!&!!#!                                                                                        ",
"                                                                                      ##0>*++---118535.;;->@@ABBBCDDDDEDDCDCBBBBBBBBCCCDDDDEEEEEDCBBA@>/<??7;;///<;:'!!!!#!                                                                                     ",
"                                                                                   #@0)*591//,,1-7-.9=FAABCDDCBBBBBA@0))>++++++'':'::+++)AAAAAABBCDEGGEDBA@41???;<<<<,:%!!!&!                                                                                   ",
"                                                                                 #@0*5.92*11-;77-4@ABBDDCBBA00ABCBCCHA'6::'':''''''''':'#CECCBBAAAAA@ABCEGGECBA07?7;<<<;?:'!&!##                                                                                ",
"                                                                              #A0559.*85I5.<;14@ABDCBBBA)+:60BDCCCCEEEC#'''':'''''''%'''AJEHAACEEECCBAA@0@ABEGGGBA01???;;?7;'!&&##                                                                              ",
"                                                                            A@0*8528-8259550@ABBBBAAABC#6''AEB@))0@HCCCC#'::''''''''%':6AEA:6:AEJB0ACKGAABBA@AABEGGDB@17???</;:!!$&&                                                                            ",
"                                                                          A@0>4.958.-.920ABBBBAAAHBCCCEH''AEA,:':::+ACCCB':''''''%':%',:@A:6''AEEA66)CKA0CJGECBA@ABDJJEB@1??;<<76,'!&&&                                                                         ",
"                                                                        A@>2559955995LABDCBAAABCEEB@0AEC'$EB,,+''''':ACEC#:''''%'%%%%',:':7'%'BEE@6:6AE0?AJKEABEEB@1@BDJJEB0;??7?;<<:!&&&                                                                       ",
"                                                                      A@>52I399295IFABDBA0ACCCAHEEA::+AB+AEA:+)''''':)BEEA:'''''''%%%','%':'%'BEE06::>@,6AJJA7<@EMEA??1@BDNJCA4???;<<<:%&&&                                                                     ",
"                                                                    A@>3L2235..5=OBBBA@(,:AEC0,0CEB'''++)BCA:+*+'''''+AEE@:''''%'','%','%':'%)CEC)6:::,7:BKG@?;?AGMD1?;7?1@BEGEB0;??7<<7:%&&&                                                                   ",
"                                                                  AA0>LPP=I5..@ABBB@)+++)*@GB:,)BEE@:'':0CEB':+'''''''AGC):'':''''':'',,':,'%$CEC+6:::,:)DKG@???AJNB;77??;110ACGGC@-?777/9+!&&                                                                  ",
"                                                                HA0=L=PP=5590ABBA@+::'+'',)BA:,+AEEA:+':>CEEA6:'''++':BKA::'+,:+*'%:'',,1:'''#EEB:7-::,60EKKEA)@EJB17?;@BCDDCBAABENDA,67-1//'!&!                                                                ",
"                                                               A@02=I2=I99@ABBA)+,''''''':+))++:0EGB+,':*BEECA:6:::,,AGB::*++',,,,:'')',-''''@EEA6:,6:,6AJJDJJEDB@1;?4BGGBAABDJEA0AENEA1?7-<<:!&##                                                              ",
"                                                             H@>=F@=5935@ABBOAA),+++''''''':,+*,)CJC)::::0CEEEB@+:+0BEB,::*+''+,:,/:+*+,:''''HEE@6:,:,;;BKG@BNMB;?;;1CME@???71AGJC01AENDA1?7;<,%&&!                                                             ",
"                                                           HA@0=PFP>1.PABBAABGC>('+*+''::++':+,,*BJE@:::+*@CEGKGECCEC@,:::::::::'::::,:::::0CGJKB):++,6:CKE1@GNC;7-7ANJA?7--;??@EME0?4AEQD@6?;<<:!&&#                                                           ",
"                                                          A@@0FFFPPP>@BBA0HEJJA,5(:+'+:::*)::+:,,AEJA66+22*0ABDEEDCA):''''%%%%%%%%%%%%%%%%'0BBCDGB;;1,,@EKC?1CMJ@?71CMG0?1//-<??AGMD1??0BEJB077;<<'!&&                                                          ",
"                                                         A0=@FFFFFPABDB@*0BCEEA:*I+::+:::*5++**5.0EKEA>**5*,,*00($%%%%%%%%%%%%%%%%%%!%!!!!!!!!!$#$':71BGMMD)?AGNB7?)EME)?;;;777?1CMJA??;0@BGJB)??<<,!&&#                                                        ",
"                                                       H@>>PFFFPPFBBB@*++(>>BGB::22::++,,,***,**,@GKJEA-,++'''%%%'''++++****1//**1111**+++''%%!!!!!!!%#HBDGB71CMG06)EME0?7;7;7677AJMC,?4CC00BJEA:6<<;'!&#                                                       ",
"                                                      B@2=@=FFPFABBAA0++::,,PDG0:+*,:+5**+*91:,,4BDBA@)+'''((((255599444*1*1,,,11,11,,1*/1/1441,++'%%!!!!!##:?@GMD),BMJA?7<;;;7<7@GMD1?7AJEH#AENC)?7;<7!&&#                                                     ",
"                                                    HBA>2F@82POBBAACEECB@)+:,AJB::,,,*55II2*,:,14@>+'''+)*52223I2****>>5,,*,,:,,,,,,:::+,,,,*,77;//<-,+'%!!&!!%ACJC;@GME0?7;<<<<?AJMC1??@GKEC#$HJGA;??7;%&&#                                                    ",
"                                                   HB@@>3PL.2ABAFBEKJKKKEDB@)*BJ0:,**,15I251;,1++''++**555552II5******2*,,*28,,,,,:::::,,,,,1,::::,-;<///*+'!!&&!#A-7BJMC1?7<<<?;CMNA??1CKGHA#%'#DMC06?<<6!&#                                                   ",
"                                                  A#@@@PPP50BBA@@BBEGBCEJKKGDBBJB,,*5,,55./1++++++*448/55*1*3=2155****2*11,5I9,:7::,,:,--,:,,,::::,,,--,-<<//,'%!&&!%+BGMC0?????AJMC1??AJMC:6:''''HGGA-?6??!&!#                                                 ",
"                                                HA00=PP=IPABAFBDF35AKBI@BCEJKKGJE07,,,,1/**+++**88./1,,1*4**444595*..*5*1*1*2**,,,,**,;<<,:,,:;,1/--1;-,/.1;;<<<1'%!&&!ACJGB@0@BJGB)??4EMG06:'%%'6'#CMC0?7<<%&!#                                                ",
"                                               BAL@FFPP3PBBAADJB2*5=DG@-*>@ACEKKKB1,,*8**)+**8888/--,;;;/4541-/51-11/.*5*.*I5,95541**,,;11::,:7;--1/--/1-..1;--;<</,'!!&!#BDDDDDB0;?7?BNNB?6:''%':AH)AGE@77<<'!&#                                               ",
"                                              BA0PFFFPI@BBFBGKKB2>*5OJD>.98.5@BDJG0;455)***998/88---;;<-//428--11-111-/2I.*I2.**99.8*11;,:6;<77;;--7;---;;;-///;7;<<<<,%!&&%)0417??;?0EME)?766:':6@EC$0DNB<?;<:!&#                                              ",
"                                             B@0@FF@=POBA=@BBEKJA***2BKB.I=22550AA>*5**8..95...45.--<<-//</54/-<<-11111838858/5*599*98-,1,7;;;776-7?<7777;?7-/<;;??;;7<<-'!&&!6???667BMJA?7;?666:6)EKEA0BMC4?;;?!&##                                            ",
"                                            B@0FFP==IOBA>2P=2BJKE@545FEG@.5IP38.955**9558.59-15555/<--;<<<1424<<<-1</411/1/81.2II8..98--1/--,-:67<-;<7677-<;-;<</;?<<??7<<<'!&&%:?4AAGMD1?;;766666HJJJJA,BMD0?7;7!&##                                           ",
"                                           A@0@FF=3PABF5.*.52PDKNB54>PBNE@>254452599555589988533558848-</-14541<<<</1/<1--/45>5*=21.58/8/1-,11:,<<<-;;77;<<</;7<<7;<<<?6;;;<<'!&&!0DMMG@?77???766@GMEA0@66AJE0?777!&!#                                          ",
"                                          A00FFF@I=AA@@AAA@4.2FEMJA.P=FGMJD0.5255555525953IIIIII55II29485/</544/<<<//;</4445532*2I9.899.1/1-116--;;<-<-;<;;;<;??;7;;;<<?7;77;;<'!&&#BGG0????1;7?)DMJA6??:6?@EGA?7<;!&&#                                         ",
"                                         A@0FFFFPFAAABGJJJGC@93BJME@59@GNDA32255553352593IPPIIIP2II3545559<<9444/<</4//4484445222I51.958--11/;?<;<;7;<1;;76;<;7??;;66;<7;;7766<<<'!&!#CEB0)AD@?7BMMB76776:??0DNB<;//%&&#                                        ",
"                                       HA@@FFF@POBABGMJGJMMMD09=BNMC44AGB=23295I23I32392=33I39IP2LI2255558<1/88444444///4//844145977.9981--1/77-1/<7;<<;<<?6;<<;;;;777777;7767<<;<1'!&!AEJENB16AJMD)?;77;;;66)CMB1?1/%&&#                                       ",
"                                      CA0@OFFFPABOBJGBAAADJMNB83FDNJDCAFI225252I53I2359PFP=P3/4I85II=25535-<</44444448//44//8/;42/?-..8./-<-1/<-//<-<<77<<;67777;;;7;7?;77767;;<;;;<-%&&$CGB,?0EMG0?7;?67;;7661BMC1?;<'&&H                                      ",
"                                      A@@FO@FFABFAJCFL233PBGMD=P3AGMGB=23252II258335592PPPFFFP>5483=PL555381<.94481454//44/444/444959/8.77;<<1<<<<----<;<;?;<;;777;??77<77;<;7;<;;;;?;,!&!#1ABCMJA??7777677666?7AMD)?;<'&&H                                     ",
"                                     A@@FOA@@BBF@EB=L=IIPI3BJGF=4@GD@3=32==IIPL4.32L25P=/5PFOOFFPPPPP2.95II2588994/144<1////444//448/1//767<<11-;<-<;</<<7???7<<767666?;66;;;;<77;<;;7;<'!&!AJMNB;?7667;?67777;?6ANC)?</'&&H                                    ",
"                                    A@@FFFFFAB@3BDPI@==25=I3DG@82ABP3I25IPPPPPPL>PFF2>=P45PFFFFFLL=PF>4LIILII5/92254941//<<//4/1/4/<---1<?7<<;77;<-;<<<<<<??;7?<767;7666667;;;<76<<;;<;;<,!&!ADJ@6?66??777?7777;?6AND4?-/:&&H                                   ",
"                                   B@@FFFFFBBA2FDB3L=L2/8==2BD>9>==II353LPPPFFFFFFF=IL5PFP=FPF=444LFFFFFP53LPPL3PP55555448/////1/4//1;;<<7?;;777;1/<<<<<<<-;;;7;;?;<<<6666;?667;7;<<7<<7;;<'!&$BEA,6)@)6777??776;66AND4?;/:!&#                                  ",
"                                  A@@FFFFFBCA=LFGA5PPP4/2P35BB59===253ILLPFFFF@@FFP>=FP=FF=PFF=4485P=FFPF24FOF==PL2522254548///11////;;<;;;7;AB)?1/<<-<<<</<;;<<<??7;7677676766<;?<<67<777;<,!&!BGCBEG@?7677?;7?6766AND4?;<:!&#                                 ",
"                                 B0=FFFFFACA2PPFJB.IFP==FP90EA.2F=2==2IP2=FFFFFPPFF==FFFFFPFFFFPP28>PFFPFFFFOF==P==352358559//111/111<;77<;?;BMB?711/1/;;/<;;-;;<?66666;;??7;;<<77;<??7777;77<%&!AJMGA766??77??777;66AMC+?;<:!&                                 ",
"                                B@4PFFFFADA@@I=FGGA.53=PL94CD>3F=5IPP5=F5=FFFFFFPFF>=PFFFFPF==FPPP=FFFFFFPFFPPP=PFF2852L55241-</4////<???????AJJA67<<</1-/-?7<;7?666666;;;7;<<;;777;;;;??;;6?7<'&&HB06666667??67;;?6)AAJC+?;;:&#                                ",
"                               BAL=PFFFABBBGE@I@DMGA4..520CG@IFI5=PPPPFF>FFOOOFFFF==@PFFL5=FPPFPLPFFFPFPPPFF=PPPFFF=445FP328--/54///<<0AAAAA0BJMGA?;7-8/-<1-<<7666?767;77;<;;;;;;;77;;;;;<76?;7;:!&%??7??66???777??0EE0AMC1?77%&#                               ",
"                              CA0FF=@FACBBJNME@5BNMJDBAACGGAIP33=PPPPPFFFFFOOOFPPF=LFFFFF>3FFFFPLFP==FPPFFFFPFF@PPPPPFFFF==5//544/1/<-AJJJJJEEJJMEAB@?//-<11-;?67;;76777;;<;;<;<<<7777;<;?;<;<<77,!&!;??7667667;760EJJE0AMB,6??!&#                              ",
"                             CA0=FF==ABBCJDBBBF3@DQMMNNMMEAPP2=PPFFFF=PFFPFFFFFLPP=LPFFFPPLPFFFPPFPPFFPFFFFLPPFP=====PFF=2PP54344/-//;,AJKNMMMNJNMJMC17/-</-6?7;;;<;;<;66;;<;;;;<<?766;<;6;<<;;7?7<!&!7?6?77;77;7?0BA@EC+AMB6676!&H                             ",
"                             B@=@PFPFBBBGBFF@@FFIFBEGGGEB@PP2IPPPFFFFPFF@LFFFFFP=2=FP@FFL=LIPPFFFPFFOFPF=PFPL====LL==PPP58=PLL=58/-;?;1AJNJNNJMMMMMNNC)?;7</-<<<<<<<;;<76?;<;77;<<7667;7??;<<<;7?77<%&!:?66?777;;777??1CC)BMA6?;:&!#                            ",
"                            B@>@@==FAAAEBFFFFFFFPIIFAAFLIP=5=PPFPPPFOFFFF@PFFPLP=2PFP=FP42PPII=PP=FFFFFPPP=P==PL==LPFFPF==FFPPL24/<<@BEJMJEEJGCCGGNNNMC0?,-//<<;;<;;;;;;7;<<<7;<<<<7;<??7777;;7776?7<'&!:?677777????7?7BKB)CNA67;'&&                            ",
"                           CA0@P@=LAA@CDFFOFFFFFPFA>.9.IF=5I=PFFPPPFOOFFOFPP=22==2=P=IPP2IPPI223LPPP=LPPPPILLLPPL2PFFP=PFFFPP=L35.4BJKMMMJEEECHHCCEMMNKEBCA;<<;;;<<<<<<77<<<<77<1;??77?0BA?????;7???7<'&&:?67?7766776,BGNKB)DG0?;;%&&                           ",
"                          CA0@FPPPFA@FEBOAFFFFFFPOD@.4=F=5I=PPFFP=FFFFFOOFFPL22I35=PL3PP=IIII3552L=L=II==L=I2I==LLLPPP=PPP=PPLI25.4BEGJNNJECEEECHHCEJMGJNMD);<7;<<<<;<<7777<7??;<?,0:7AEMB@A@@@17<;777<:&&:?66<;677?)CMMEBEA)EE)?;;!&!                          ",
"                          B@=FF@PFA@IAGAFFFFFFPPIBD>.0F=5LPPPP@F@=FFFFFFFFF===23253II22L222222355I252355553I3335P=3I=PL=FFPFPPL2591;@GMNJGEEEGEGECCHHEEEGJJA?77;--<;7;<;7?;7?0A)?0CEHBJMNJGJGJC1?;;;7;7;,!&:??;;;7?0CMME@6AJ@0JC;?77!&!                         ",
"                         B@>=FF@FB@52AJALFFFFFF3=EB9=F=2=PFPPFF@==FFFFFFFF@=28*5993332555225555555553555555LP325=L=2LF==FOFFFF=225<4BMMMMNJEEGCCCCECHHHCEEJD)??77?7;;;;;?0B:0EJBBEMMJMNNNJMMMG@6???7?777;,&&:7???60EMMD066,DE0AMA?67:&&                         ",
"                        CA0=PFFFAA453AJD>=FFFFP5AJ@3OP5=PPFPPFF==PFFPFPFFFP=..89.53332589225555955.535995553I252L=PPPP=PFFFPFPI229@DMJJJJNMJJJJECHHEEECECCEMDA0)1+,7??;7?BJADMNNKMMNNJGJJJJJMGBA@@,6?7;;?;:&!71)7@EMMC)666;BKC+CJ066;%&#                        ",
"                        B@==@FFAB@8>=@GNB03=325AJC3FF2=PPPF@=F@=PFFPP=IPFP=4-889955333295559925.<9995599555555542====PLLFFP==L239*CKJGJKKKKKKKKKJJECCEJECCEGKJGDDDA6,016)EMJKGNNEJNMECECCEEEJJNGJE)?;7;;77<'&!@ECEMNB)?66?@JEA)0ED+67;!&#                       ",
"                       BA0@@@POBA@>>=0CMNDA@0@BJG@FF5IPPPPPP=PF==@=P@=2LF=9.55.95233595329889.<<<<89899...949949522I==L=PPPL==3258ABEKGECBBBAAACCEGJECCHHCECEJKKMMC@CE):BMMJECEJGECEECHHHHCGGGNME@?7;777;;7<'&!BMMGB,?;;??AB))D@@MB767:&#                       ",
"                      CA@@@@=FBB@F@>=3AGMMJEEGMGAFF55PPPPPP@PFF==@FF@3342=4855.92259<1..5598</ABCA<.9..>@@..8.989953==L===PL===3I588AB@01<7???0HCCENGEGCHHHCCCEGJNJGMD)ANNJECCCCCCHCECCHCHCJNMMNB6?67;7?7777<%&!BMB;?;77??,;?)ED+BMA??7%&#                      ",
"                      B@0FFL=AB@FF0=@P=AENMMMNDAFF255I==PPPP=LF===PF=2299>2995.955.4ACB><59<4BJJKG@<<4BEJGA.//..9985I3IL=L==2I=L3999.<7;77?,@BEGJJJNJJJEECHHHCJMNNNMJAAGNJJGECEEEEJJJJEECCCCCEJNB7666;?6?77?7<%&$DB7?7?7;7?6)BJKB)DG0?7?!!#                     ",
"                     CA0FFPLFBAFAF==@@=>@BDDCA0PF53I23PPI559.998..9I9....59-.8/.59>CNJKE@.<1BMECHJC17BNJCEG@<.889985II23====L3LI2559.11/;70BGMMMJGGJJMMJGEEEEEGJGJJKEACKEJNNNNKKKMMMMNNNEEGEHHCKB6667;??7;77?7<%&$@:6??77?6AEKKJJA@GD1?7'&#                     ",
"                    CB@@FPL@AA@OAF@=@@==3=@0L9PF=5ILI5=I2@ABBBBAAAAA@@0>4=8-<<;<.<AMEHHEG07@JJCHHGD10GEHHHEB//4.8982I3552=LL=2=325588//<7AGMMMEH#!##HHENMGEGJJJEEJKEHBJJJMMMMGCHADJEENKMGCEEHHCNB6?7;;?7;7?66?7<!&:?666??+BGMNDABB6AMA??7!&#                    ",
"                    B@0F@PPOA@FAFF@0@@====555POP5IIPI22LBGJNQQNJJJJGGGEEDDCBAA@@04CGHCHCKA?BKCHHCKC/BMCHECEE><4..88555IL223LL223585981;?AJMMMC!&&&&&&&&HEJJGEENNNKEA;BKMJCCGC@)7?)A00BJKNECHCCGME0?;;76777?66777,!&6?:660CNMNB)?,)?)EG067:!##                   ",
"                   CA@FF@PFA@@OAFOF0@@0L=5>2=OF3II=I=I9BNMMMMMMMMMMMMMMMMMMQNJGGEEJGCECHJC0DKHHHHKB<CNCHCCEG0<8/.88895IL253IL22548559<7AGMNJH&&&&&&&&&&&&HGMJEEJKC#??AECA1101????????7AJNJCHHCMJGA?7;777??66?77?7'&!4B0AGMNEGA67666?@NC;6<%&#                   ",
"                   B@@FFF@OA@FFFFOF@@F@0>45LO#PPPIIII5@GMNGDDDDDDGGGGGJNNNNMMMMMMMMJCBH#CNEJJCCHHKD1BKHHHCKD4.4844899922595IL=242588.;AGMJMC&&&&&&&&&&&&&&#EMJEHA)?7<14-????7,,+;???77;BMJNEHEJB0177;7777?66?77??;%&$DJJMJB)AE)6::,))BNA?;;!&#                  ",
"                  CA@FFF@FA@FFFFFOFFLPF=555FO(OOOPIP35BMMGRSTUVWTXRRYRYYYYYDDGGGGJMEHHCHCNMMJECHHEGBEKHHHHJB7<.1.894555559.53255558.<)EMJNNCH#&&&&&&&&&&&&&!EMG@??7;<;??10AABCCCBAA4;7?4EKJMJME)?7;7;777777?7777??<!&#GMEA,?1CC::11BB0EE47<'&!                  ",
"                 CB@FFFFFA@2FAFFOOFFI(P355POO%!$OPPPI0EMNYZXVRRXVUXXS[[TXZ]TUURYYYDGCHCHCNNMJCHHHGMNMJCH#HNB041;;<.<.99899.932599558<ANJJMMNMJH&&&&&&&&&&&&&!EMC)?;7;;?0CGJNMMMMMJGEB0??HKEJMMJ@?<<<<7;;7???6?7666?,!!BMA6?7?@GA?7?BJ@AMA?7;!&#                 ",
"                 BA@FFFFOABA@FFFAOFFP!%I22OO%&&&$$(P3@GMGYTRVRYYYYYYRTSXXSWXXX^]]_^DCHHHCMNGMECHHJMMMGCHHEMJGDCBAA@04/<<;<;199595>284DMNMMMMNMMH&&&&&&&&&&&&&HNKA67;7?0EMMJEEEEEEGJMMEA,AJEJNND@7;--<;;;;77?6?766??;'&$DA?77?7BE):AEKC)DG)?;:!&                 ",
"                CA@FFFFFAFEJDAFFOOFFO%%I5PO$!&&&(PPPIAJMGYURVURYYYYYYUXUVVUVVX`TST`YEHHCEMNGMGBCEGDDQJCHEMMMMMMMJGGGDBBA@041...<.99.@GMNMMMMMJNJH&&&&&&&&&&&&&EKH:776AEMMCH!&&&&&!#CJMJCCJKNME07<-<---;;<<;77?7?6???<!&$46?666)DCBGKKKAANB?7<%&#                ",
"                B@0F@@FAFAJGGCFFFFFFPPI5PO(((!&%OFPPPBNMGRVRRRVYYYYYYYRRRRVVVSXSTSWRJCHCEJQNQJHHJDZXGJCHENGGJNNNMMMMMMNJGEDCBBA@04<<BMNMMMMMNMNMC&&&&&&&&&&&&&CME#?6@GMGH&&&&&&&&&&&HGMMNGEJGD17/<<<----;;77777;66667,!!666666)CKKKGCEE)BJ0?;;!&                ",
"               CA>@FF@FF@DDFAAFFFFFP2L3>OFIPOO$OOPFP@DMNDVUVYRVYYYYYYYRRVRRXVVVSSWSTDJCCCGQDGNCHJY_VQEHHEGRXYYYDDGGNNMMMMMMMMQJGECBAGMMMMMMMNMNME!&&&&&&&&&&&&HNKH6)EMJH&&&&&&&&&&&&&#EMMD@A@0-<./11;;<;-1-;6?77766667'&!<0::AEJKJDA+0A:0JC7?<'&!               ",
"               B@0FFFFF@ADF3FFABFFCB552FO3IPFO$(PPFF@DMNYTVRRRRYYYYYYYRRRYRXVRRVWUVZVGJGGJGYGMGJNY[YNHHHEG`_]]]TWURYYDDGGGNNMMMMMMNJQQNNNNMMMMNME!&&&&&&&&&&&&#GKC)BMNJEECH#&&&&&&&&&&!CMG@??7<<.111<;-;-881;77?7;?66?<!&$DBBJKKEA)666:@)BN@?;7!&               ",
"              CA=@054FO@DB5IFAEBFFDNA-@AP5=PPF((PF@PFEMJYTRXVRYYYYYYYYYRRYRRVRYRUVVXZDMJGMGRGJCJGVZDJCHHED]]`^ZZ^Z^Z^]SUVRYYDGGJNMMMMMQQNNNNNNNME&&&&&&&&&&&&&#GMJDJMMMMMMNJC&&&&&&&&&&!EMC1?<<<<<<</<-<</88/<76?776667,&!BNKKEB0,,,,6:CB0GC;?;'&!              ",
"              C@>>444@@AJEB@@DGOFFAGGAOF5====PPPPF@LAGMGR`RRVVYYYYYYYYYRRYRRRRYRYRXRWYNECJDVGJCEGWUGJECCJY[Z`````````Z^^]^^ZSVRYYDGGQQMMMMMMQNNQJH#!&&&&&&&&&&#JMNMNMMMMNNNNMH&&&&&&&&&&HJJA?<-<<<<1-;<<<<-41;;777766??;'&%DKC0671,,66)CE)BN@?<;!&              ",
"             DA>2444>@@EMMJEENBFOF@EGBA=3=====PP@FFPAJMGYUYYUVYYYYYYYRYRUVVVVVYYRUXRUSGJCJDXGJCEDSVGJCCJGW]`Z`Z``ZZ````````TTZ^]]]SVRYDDGJQMMMMMMNJEECH#!&&&&&!EMNJJMMMMMMMJMG!&&&&&&&&&&CMD)7-<<<</;?-<<<<-;;<;7;;76???<!&AJ@67,,66)HCEKH0GD,?<'&!             ",
"             C@2L4/50=BGDGMMMNDA@>@GBOF3PLL=L=@@@FPPBNMGYRYYURYYYYYYYRYRVVVRVRYRXVVRVSYJJNYSYNJJDTRGECEQY]`STZZ``ZZZZ]^``TTTTTT``^^^[[]ZWRYYDGGQQMMMMMJJECH#!&!EMJJNMMMMMMMMNJH&&&&&&&&&&HJG@?<<<<<1/-</1-<;;--;7;;;7776?,&!B06666)ACJEEEE)BMA?77!&             ",
"            EB@=P2/5@LAA=@CGMMNGB@BDAO2LPLLL0@@@@FP=CMMDRRYYYYYYYYYYYRRRRRRVRYYRRYRVRVVGMQYXVGMQD`VGEHJDTSUVX``WWTZZZZZ`T``WSTSTSST`Z^][__[[^WRYYDGGNMMMMMQJGECJMJJMMMMMMMMMNMC&&&&&&&&&&&ENB?7-;<11<<<-1-<<-11<777;;;7??;%&'0)6)HEJGECA#CH0GD,?;%&!            ",
"            DA0PF=40@ABI5>0ADJMMNGGBA@5=@PL@@@@@=FF@DMMDRRYYYYYYYYYYYYRRVYYRYYYYRVRVVVTYNQYUWYQQDSVDEEJYZRRVWSSXS`````ZZ```XXWWST`TT`ZZ^^^]][[[_[ZXRYDGGJNMMMMMQQNNNNNNMMMMMMMH&&&&&&&&&&&CMB77<<<<1<<<;<<<--<--;77777777?,!!BDACKKEEC#''AE)BN@?;6!!            ",
"            C@0FFP=@=DE=IFF@@BDJNMDAA55=P==@@0@@=FF@EMNDYYYRRYYYYYYYRYRRVRYYYRRRVURRVVTXGMYWVYGQDVRDNMDUXVVUXXSSST```T`ZZTTTWXWST`T`Z^ZZ^^^ZZZZ^]][_[]SRYYDGGJNMMMMNNNNNNNNNMJ#&&&&&&&&&&&CMC,?-<<<1<<<;;<<<<<;;;7;;777;76;%&AJJKKEBEC'66)EA)GB666!&!           ",
"           EA0FFFP@@FGJB=PFFO@ABEJAO@95===@@@@@@PFF@GMNYYYYRRRYRRYYYYYRRRYYRRYRVRURYRVXZYQDURYGNYVRDMQYXRUXUVUXWXXTTT```Z```TTTWSTTST``ZZ^^^^ZZ`Z^Z^[[___[^WRYDGGQQMMMMNQNNNME#&&&&&&&&&&&HME)?--;11;<<<;<<<-<<;;;;<;;;7;6?1!!CKEB#:AE0'6)EEABG06;'!#           ",
"           D@5FFPPF@CMMNDF=FAAF>BDAO29>=F@0=@FFFFFPAGMJYRRRRRYYYYYYYYYYRRYYVRRRYRXVRRUVRWDQYVRGGYURGMDUVRUVRRRVXXVWWWSSS``ZZ``TWT``TT`ZZZ^^^]^ZZ^]^Z^^Z]]][__[]`UYYDGQQMMMMNQNECH!&&&&&&&&#JG0?;;;--;<<<;-<<<;;;;;7;<<;;;76<%&AJA:66+CH6'BEC##JB7--!!           ",
"          EB4>FFPFFAGGDEQJCAF@@0AAA@85=LLLFFFFFFFFPAJMGYVRYRRRRRYYYYYYYRRRVRRYYRRXURRURYVRGYRYQGVXYQGRWRVVRYRRVXVRUVVUXS`^`ZZ`TWT````ZZ`Z^^Z^]^^]]]^]]^Z^^^]][[[__[ZXRYDGGQMMMMMJGECH!&&&&#JG#6;;7;;;;-;;---;;;;;;;;<<<<7767*!!DB:6::#060CH$''DE47<%&#          ",
"          DA4FOFPFFAB@=@ADGGDA0>0OA58254*5LP@FFFFFPBJMGYVYYYVRRRYYYYYYRRVRRVRYRRRVVYYRRRRURYRYQDVUVDYWXURRVVRRVUVRVVVWSWT``Z^`TS`^``ZZZZZ^^^^]^^]]^^]]^^]]]]]]]Z^][[__[]TRYDGGJMMMMMJGECH!#JG066?7;;;7;;<-;;7;;;;<<;;<<;;;76<%!AGA'6'6::'':6::ANA?<:!#          ",
"          B>4FOFFA@=5959.2AGMGDA@BF825.+%+542((FFFPBMMDRURYYRRYYYYYYYYYYVRRVRYYYRRVRYYRYRUVRUYDRUVXXXUUURRVURRVVUVVVRUXWWS```TTT``T`ZZZZZ^^^ZZZ^^^^^]]]]]^]]]]]^^]^]]][[___]SRYDGGJNMMMMJEENJA):66??777;;;77;;;77;;;;<;;;;;67*!%DJBA#':::6::)A)EC,;<%!#         ",
"         DA*>@OFFA@PP=I5@BDJMMMDAA=L=59+!(PP3%%FFPPCMNDVRYYRRVYYYYYYYYYYRRRVURRRRRVVRYRRRRRYRRVXUVUTTXUUXVVVRVVVXUVVVVUXWWWS`TT`TSST```ZZ``^ZZ^]]^^]]^^]^^^Z^]]^]]]]]]]^][[[[__[`VYDGGJNMMMMNJECB0,?????7;;;;;;777;;;;;;;;776/%!HGECH:::6''6#C#BJ0?<'!#         ",
"         C@=FFFFAAF0L@ABGMMQGDBFBF5L=558*5LPPPPFFPFDMNDYYRRYYRRYYYYYYYRRRVRVUVURRVVVYYRRRRRYRVVVXWWWT`SXTTXUVVUURVVVVUUVVXXSTTTTWST`````T`Z^^^Z^]]]]^^^ZZZZZ^]]]]]]]^^^][]]]Z][[[__[`VYDGGNMMMMMNGCBA0,66??7;-;???7;;;;7777767+!$AA):6:%%$#ACE##JA6;,!!         ",
"        EB>@FFFFA@@@BDGMMGDBA05FB0==22259982PFFFFPFEMNYRRYYYYRRYRYYYRYRRVXVVURVRYRVVRYRRRRVRRVRVXXST``ZTWTSXUVVURRUVVUVVVRUXSSXTTSZ`TTTTTZ^^]^^^]]]^^^]^``Z]]]]]^^]]]^]]]]]]^^^^^][[___[`VYDGGNMMMMNJGCB@)76????77777;;77;766?1%!@DH#AHHBCEEECH)DD,7;%!#        ",
"        DA=FFFFOAABEJMMGDA@=45>AA>==L2253I3IPPF@FPFGMJYRYYYYRRRRRRYYYYRVVUVVURRYYRVRRRRRRRRRRVVVXWST````TTTUUWUUXVVUVVRRRRVVUWXWTSTTTT`ZZZZZ]^Z]]]]][^Z^`T^]]]]]]^]]]]]]]]]]][[]][]^][[[___[`VYDGGNMMMMNGEBA0,?6667777;77;;:,,;+!#GKEEECCH@BECH'HJ@?<:!#        ",
"        C@POOFFAADNMJGCAPL=2>4@B@3>4L322((PPPPFPPIAGMGYYYYYYYRRRRRRYYRRUXVVVURRRYRUVRRRRRRVVRXSXWTTT`TT``SWXUXVUXVVUUVVRRVVVUWWUXXX`T`Z```ZZ^^ZZZ]]][]Z``^]^^]^]]^ZZ^[[][]^][]]]^[[][]]^][[[___]TRYGGNMMMMMJGCA):66??7;;;--1,,;*!!CJECH$'6#CEC#'#JB6;;!#        ",
"        B0PFFFFABGMGBFP24=@>59AB==45I22I%(PPPPFFF=AJMGYYYVWRYRVRRRRVVRRUWXVVUUVVYRVVVRRRRRVXUXSTSTTSST```TSWVRVSXVUVUVVVRVVVXXXXXUUSST`T``T`ZZ``Z^Z]]^ZZZ]^^]]]^]^^^^]^][]^^[]]]]]][[]^][[[]]][[__[`VYDGGNMMMMJGCA0,667;;;--,76-$!AJC$'66$CECH%%+ED,?;'!#       ",
"       EA=FFPFAABNMJBA@III3520BA5243I23P((P!%OFFPPBNMGYRRUURYRRRRRRVVRRRVUVVRUVRRRRRVRRRRRRUWUUSTTSTT`Z`TTSXRRUTWUXVUUUVRVUVVVVTSUUUXTTSSTSS``ZZZ`]]`Z^^]^Z^^^^^^^^]]]]^]]]]][][]]]]Z[]][[[[[]][]][___[TRYDGNMMMMJGCA,?7;;-,,,,;)!$CA666$CECH%%%:BJ06;:!#       ",
"       D@=FFFFAADDBEJNECBF0ACAB@5985I2IP(%O!!OO()IBJMDRURRRYRYRRRRVRRRRRUUVRRVWURRVUVURVVVVXXVXT``TT````SWXXVXSWTXUUXXUURRVVUVVXTUVUXST`TTTT`Z^Z^^^Z`]^^^^Z^^^^^]^Z^Z]]^^]]]]]][]][^`]]]]]][[]][]]]]]][[_[^UYDGGNMMMJC06?;;,,,,;1%!)::6$CECH%%':6@JA67;!!       ",
"       C@PFFFOAABA=@ABDNQGEJEBA>5223IP(((!((OOO(((BJMDUXRYYYYYRRYRRRRRRVWXVRVUS`UVUUVUVVUUXXWXTZTSTTT``TSSTTSTTSTWXXXUUUVVVVXWVVWXUXWWT``TT`ZZZZ^^^]^^]]^^^ZZ^]Z^^^^^^^^^^^^^]]]]]]]]^]]]^][]]][[[[]]]^Z][[__]SRYGJMMMGA:?;;;;,:<'!%:6$HEEH%%::'6)EC:7<%!!      ",
"      EB=@FFFAA@0FP5950ADNMJBBF53I33IPP%!&&%OOO((PDNMDVURYYYYYRRRRRVUXRVXXURUXXUVVUUVVXUUWWXT``^TXSSWSTSWXSTSTTSTSSSSUUVVVUVUWXUXUUUUXST`TTTZZ^^ZZZ]]^]]^^ZZZ^]^^^ZZZZ^ZZ`^ZZ]ZZZ]^][]^^]]]]]]]][]][]][]]]][[[__[TYDNMMNB,?;;,,:-)!%7)BEEH%'::'':'BG)?<:!#      ",
"      EA=FFFOBAFFFP25I=5>BJGBB=5IIIIPPP%&&&&%(OOOFDMNDVVURYYYYRRRRRUWURRVUUVVXXUXUVUUUXWXWXS``S^`WSTWXSTXXXWTWST``TTSXXVUUUVVVUUXWVVVXXSTT``Z^^^Z^^^]]^^]^ZZ^]]^ZZ`Z``^ZZ`Z^Z^ZZZ]Z]]]^^]]]][]]]]]][[]][[]][]]]][__^YGNNNA??,;;:;/%!)CKEH'%'':::::AJA677!#      ",
"      D@2FFFOB@FFFBBBAFP35BDBA3I=3I($%%!&&&&OO($OOEMNYWVVRYYYYYRYYRVURRVVRVYRVVUUUUWUUXWWSWSTTW``SSTSXWTSWUUSWST``TSTWXXUVUXVVUVUXXVVUUXWST```ZZ^]]^]]]^]]Z^^^]^Z`Z^^ZZ^]^^^`Z]]]^^^]]]]^^^]]]]]][]][[[]][[[[[[]][[[_XDNME)6;777:1)!#GJECA#%%!''':0GB67;%!      ",
"      B0=FFOOA@PBEJNJGBFP20ABA3==3I(((PO!&&!OO%!(OGMNYWRRVRYYYYRYRRVVVRVVRRYRVVUVVVXXXWSSSSSWWWW`TWTSSSSSSXWSSWX`TWXSWXXXVUXVVVVVXXVUXUUXSTST`^Z]]]^]]]]]]^^^^^^Z``Z]^Z^]^^]Z]]]^ZZ^]][]^]]]]]]]][]][[][[[[[]]][][[][_RGNJA67,77:;*!$@ABCEECH#$%%6+DD,?;:!!     ",
"     EB>@FF=@AFBJMMMMMMDF=2AC@3=IIIPP(OO(%%OPOOPPAGMJYVRRVSVRVRRRRRVRRRRVVSXRRUWVVRVXWWSTWWXXSWS`SW`STTWWTWTTSSS`TSWTSWWXXUXUUUVVWXVVXWVUSTST```]]]^]][[]]]^``ZZ```Z^^^^^^^^ZZ^^Z`TZ^^]]][]]]]]]]]]]][][[[]]][[[[[[[][]DMMC;?;7;7;/$!:6:)0ACEEEBH#'BG0?;6!#     ",
"     EA/4>>2@@AGMNGDCDJNB3=BB===IIIP%&!%PP%PPPPPIAJMGYURRVWXRRRYRRRRRRRVVVUVRRVXVVXWXXUS`TSXWSWSZ`WTSSSXUXWSSWTT`SXS`TSTUXWSTSXUUXUUUXWXVX`SS`^^]^]]]][[]^]^Z`ZZT`Z^^]]]^]^Z``Z^ZZZ``]]]]]]]]]]]]]]][[[[[[[]][[[[[[[][[YNME)?;7;;7<'!'6:6:::)ACECCAAGA?;7!#     ",
"     D@144LFAADMGBO@0@BJEL@CBIPL=3P(&&!PP(%(PPPPIAJMGYURRVSURRYYRRRRYRVVVVVVRRVUUUSXXXXXTZSXXXSX`^WWTWWXXXXWTSSWSXXT`SSSUS`SSTWVVXXUXXUUVUTWWZ]]^]]]]]^]]^^Z]Z````^`^^^Z^^^^ZZ^^ZZZTTZ^]^]]^]]^^^]]]]][[[[[]]][[[[[[][_YJME0?;7776;)!%:':::''ACECCH0EB?;;%#     ",
"     C@94>P@AAGGBP58544BNAFDA=P==IPP%!(PPI%%PPP=3BNMGYVRRVTSVVVRYYRVRRRRRRVVRYVUWWSSXXWSSSSXUUXWS`SWSWSXUWXXTSWXXXW`TSSSXW````WVUURUSWXUXWSRVZ]^^^]]^]]]][^ZZ``TTTZ`ZZZZZZ```TZ^Z``Z`ST^^^^^^]Z`Z^^^^^[]]]]]]]]]]][[][_YJME)?,777:;*%%@A'+#HCEECCEC0CC;7<'!!    ",
"    EB024LP@@BNBFF@>4>.@EBADFP@P=IIPP(PPPI((PL==2BNMGYRYRVW`UVVURYRVRVVVVRRVVVUXXXXWWXUXUSSUVXWWW`TWSSSSXXWXSWUVUWWTSSTTTWS``TWVUUVRVWXUUVRYUZ]^Z^]]]]]]]^Z^Z``TST`ZZZZ``TSS`T`Z```Z^``^^^^ZZZZ``Z`Z]]]][[]Z`^^]][[]][_YJME)?;777661$!AGCCEEEECHAHE@BE)?1:!#    ",
"    GA/84440@DEFLFFF====CCBBFPL==5885IPPII52P24=IBMMGYYYRRXZVRRVVYYVXUUVRVRRRVUUVVXUXXVRUWWWUUWWUTZXXWWXUUWXWWXXSSSTSWTTTTTT``SUXXWRRXUVRRRVVT]]^^]^]]]^]^Z^ZZTTZ``ZZZZSWSTT`TT``Z`````ZZ^^ZZ````^Z^]]][[]^`T^^^[[][[[_YJME)?7;;766;+!AGKJEECH#':'A)AJ@?1,!#    ",
"    EA</4/*0AEB==OFPFFP>BEDB%(2485258.893I582I592BMMGYYYRRV`VRRRVYYRVRYYRVVVRVUUUVXUUUUVVVVUXXUUUWZSWWXWXXWXWWSSSWSSSSTSST`T`ZTTSWWVRUUVVVVUWT^^^^^^^Z^]^]^^^Z``^`TT`````TT``T``Z````Z`^^ZZZ```ZZ`^]^]]]]^Z`TZ^^][[[[[_YJMD1?77;;767)!$DECH#'':::::6@GB?-1%#    ",
"    D@.44/+0@EB=FFFPFFF@DGDA(PL42III././4I583I=5.BMMGYYYYYRWSWXRRRRYYYYYRVVVRRUVVVVVVVVVUXUVWWXXSS`TWXUUUUXUXXWSSWTTTSSSST`ST````SUUVVWUXWUS]^^^^^ZZ^]]^Z^]^^Z`^Z`TST```Z`TT``````````^Z`ZZ^^ZZZZ``^]]][]^^^``Z^]]][[[[YNMC,?;77;;;7*%%CC$::::::'::6)EB;-/%#    ",
"    C@5=L50@@DB0F@@FFF=AGGDFFF=52I24/1..83553I=38BNMGYYYYYRX`STSWSVVVVRYRRYYYRVVUVRVXWRUSSUVUVXWSWS`UVUXVVXUXWT`TTSTTTWSSTTT`T``TWXUUUUUXXXT``^]^^^^]]]ZZ^]]^``Z````SS````T```TTTZ`TT````^]^^^^^ZZ^^[[]]]]^ZZ`Z]][[[][[YNMB;7;77;,-;/%%AA:6::::':,::+CD*-/'$!   ",
"   GB@44@=0@0CB=@FF@@P@CMECFF>4488///////5592I=I9AJMGYYYVURVSUXT`URVXWVYRRYYYYRVSXVXXUUUVVVUUUUUWSWTXVXXXUVVXWTT``TSSSXSSWSTT``TSXXUUVVXWXW``Z]]]^^^^^^Z]]][]^^ZZ```ST`T``STZ`TT```````Z^]]]]]]]^^]]]]]]]]ZZZ`Z][[[[][]DMNB?777;;,,,8'!)1::::::',::::BE0;/:$#   ",
"   GB==45>0@3BGF3@@@>=BNGDBPI548.//.9559/.552I==9AGMJYRRVSXVS`TT`VRUXWUYRUUUYYRVRRRVVUUVX`XXTZTUXWWSXVUVUURVWWTT`ZSWWXXWSWXXWTTSTWUUUVUXSTT^Z]]]]]^^^^^]]]][]]ZZ^`TTS`````TT`TT``TZ^ZZZ^^][[[]]^^^^^^^]^Z^^^^^^][[[[]_`GMJA?;;7;;,,14)!'7,,::::::::::AG061+$#   ",
"   EA>==410@PODDF00@ABJJCCBPPP=L22I332II5925>>>0L>CMNJDYYRRVW`XWWST`SWXVXXUVRVWWVRVRRUUVXTWSSZ`UXWUXXVVVVVUUXWSTSTSWSWUWXXUXSXXSTTXVVUXWSZZZ^]]^^]^]^^]]^]]]][^^Z`T`TS````S`S`SSTSTT```^^]]]]^^^ZZ^]][[]^^^Z^]][[[[[]_UGMG0?;;;;-1,,8)%',,,::,,:::,:6AGA?/*%#   ",
"   EA==0L>0O$&#DGDCDGNMDADAPFF5PPPPI233II25*842==.@GMMMNGGGGDDDDDDYYYYYYYYYYYYVUVVXXXSTSSWWSXW`XXUVUWXXUVVXWXXSTTSTSWXXWXXUXXVRWTTWXUWSTTZZ^]^^^^]]^^^^]]]^]]]^ZZZ`Z`STTT`SWSTWUWXWSSSTZ]]][[][[[[[[[[[[]^ZZ^]][[[[[[_RGME)?7;77;,1,1*%%:::::::::,:'60GA711%#   ",
"   EAL@0@POO!&!BMMMMMME@ADAL@FL4552III.5=3251/529/.AGMMMMMMMMMMNNNNNNNNNNNNJGGGGDDYYYYRX```Z`SSWXXUXSXXXUXXSTSSS`TTSXXSXXXUUXVUSWSXXWWSTT`Z^Z^]]^^^ZZ^^^^^^]]]ZZ]^`STT`TST`ST``Z`T````^][[[[[[[[[[[[]][[]^^]^]]][][][_YNMD,?;;;;;71*14$%:,+::::,,::'')EB;-1%#   ",
"   D044>=0OF(%(FDGJJJDA5ADFLFFF=8/.5LL5I=L=28.5598..@BEGJJNNMMMMMMMMMMMMMMMMMMMMMMNJJGGDDYYV`Z``TWXXSSXWSTSWTST`TTSXXXSXXXXXXVVWXXWXWSSTT`^^^^^]^^^^^^^ZZ]]^^ZZZ^^ZTTT`ZT``TT`T`TTTTZ^^]]][[[[[[][[[[]]]]]___[[[[[[[[[YNMB;?;7;;--/1,8$%+1,::+,:::::6'CC1--%#   ",
"   D0144/(@=III50AABA@5>BDF=FFFFL8//5==284>I5/522228.8>@AABBBCDDDDEEEEGEEGGGJJJNMMMMMMMMNNGGDDYRZ]WUSSWTTSSSSTT`TSSWXWXSWXXSURVXXXXXS`TTZ^^^]^^]]ZZ]^ZZZ^]^^^`^]ZZ]Z`Z`````T`TXXUWSS`^Z]][[[[[[[[[[[[][][WYYVZ[___[__]DMNB?7;7;-1/1,,8(%+1,:::,:::::::BD*7<'!!  ",
"  JC>/44/)@L2PF544//8440BCF@0LLLP=588228//4L519I3II48.......3P545PF@0F@@0@FAABBBBCDEGGJNMMMMMNNGDRT`WWSTTSWSSTTSTSWWXXUWSWUUUVUXUXWWT``Z^^]^^]^ZZZ`]^ZZZZ]^ZZ`Z^^^^ZZ^``Z```TTWSUU`ZZ^][[][[[[[[[[]][]^Z_VGMGDYYYYYYVWGMJA?;-;;-//-,,.)%',,:::::::::::BD47/:!&  ",
"  JB44441$05>004444>4//0CBF@>444LP=588888.53598449...843P=8.2P5.5I325339..35I35//53>0@ABCDGJNMMMNGDXTWTSWSSWS``STTWSSXSSSSXVVVVUVUXS```^ZZ^^^^ZZZ^^^^^^]]^]^^^ZZ^^^Z`ZZZZ```STZ``T``^]^][[[[[[[[[[[]]]``][RGMNEEGJNJGGJMG0??;--111-,,.)%',,,:::::::::6AE071-%!  ",
"  GB4444>#000>0@440@0480CBFF05544PP5/./.885325././//.53PP583FPIIPPIII3I298982PP99359.<<<140ABDGNMMMDUTSWWSSSTT`T``WUSTTSUUUVRVVVXUWT`ZZZZZZZ^Z^Z^]]Z^]^^]^Z^]^Z^```TTZZ``ZZ`W`Z`ZZZ^^]^][][[[[[[[[[[[[[]^]_WDNECHEJHCJNMJA01??/8.1-,,/)%',,,::::,:',:6AE0?,1'$  ",
"  GB/444>#@0@>>@@0>@@0>@DBP00>>=PFFP4/1.883I5//..///.5I=4882PPPI5PIII3355...5PP95I3IP38599...50AEMNMY]TWT`SS```TTSUUS`TWXUXVVXUUWUT``^^Z^^``^ZZ^Z]]^^]]Z^^^^]^Z`ST`ZZZ^Z`Z^`````Z^^]^][][][[[[[[[[[[[[[]]^^_]YGJEGEHHCCCEGGEB)?11--,11*%%:6:::,,:::,:6AE@?-<'$  ",
"  GA4/441#@>444>0>440@=@DAF0>5>LF==PPII3885LI1/8..////99//844=PI5PPII3I255....89.5III395II33I39<0DMMGU^STZTT`Z^TSXUUUUVXXWTUUXXXXXT`ZZZ^ZZ^ZZZZ^Z^]]^^]^^^^]]Z`TS`Z``^]]ZZ``ZZZZ^^^]^][[[[][[[]][[[[[[[[[[]]__SYQMEHHHHHHCEJKE0?-;--,,4$%AA:6,:,:::,:6@E@?-<:$  ",
"  GA@@>4+#0>444554440@8ADA@@@>544544=FP248.45//88.//.////.8883PI99IP=IPI2335..3I9/22529-8I3IPI35<@GMNY`TS``SSTZ`WTXVRRRUXSSUUUWTUS``ZZZZZ`Z``ZZ^^^]]^Z]]][]ZZ`Z`T````^^^```Z^^^^^]^]]][][[[[[[][[[[[[[[[]][[[[_[RGNEH##HHHHCCKD17---,;4$%BG#'66,:::::60EA7-<:$  ",
"  EA>FFL>#04455$(54400-AEA@@OO@=05444>8.88895818.85855///5I582I5845LPIII32II52II9.93359/.5I3I32I3.CMMGVZT``XXW`Z`TWRVUXWUXWXUXSTS`ZZ^^^ZZ`TT`ZZZ^^^Z^^]]]^Z^^^^`TT`Z`Z^ZZ^^^^]]^]]]]]]][[[[[[[[[[[[[[[[[[[[[[]Z[_RGQJCH##HHCCCJ@?<<-;7/'%BKJCA'6:,,,:60DA?;/:$  ",
"  GA14@0>#0445(!!250@>2ADF@@@OFFF>454888485P=51...8.88.//4=2/9I8/II5II3PI55II33I5.9325./.5I25I333.BNMGRZ`Z`SSST``SUVXXXXUUWWSTSS`Z`Z^^^^^ZZ`T`Z^^^]^^]]^Z^^]]^^ZTTTTTZZ^]^^^^]]^^]]]]]]]]][[[[]]][[]]]________[[]]`RDMJECCCHHCJA?;;;;;/'%AGCEKCA$':::6)DA?;<:$  ",
"  GA/44>)#0444>$(55@@@=BDF@0>>@0>45448444845PI/...///.//./52/.5.855IPI5IP3III3235/8335.8.2II5I325.AJMGR`W`ZSTTWS`TUVRVUXUXSXS`STZZ`ZZ^^^Z`^^ZZ^ZZ^^^^]ZZ][]]^^^Z`TSTT``^^Z^]^^]]]]]]][]]]]][]]]]]][[][`RYYYUT`TRDDR[YNMNJKKCCKE0?-;;,;/'%BC$0CKKEA%'':)DB77-:$  ",
"  E@444L)#044452254>@@=BEFF@0>@=44444258.84852/......./////8.//..8.3P=25LI33III5289II95I98PPI32559BNMDWTXTZTSTVVSWUVRRVUXXXXS``Z^^ZZ^ZZZZZZZZZ`TTZZ^]^Z^]]^Z`ZZ```T````ZZ^^]]^]]]]^]]]]]^][]]]]][]]][_RGQNJGGGGJJNQDGNMC0ADGGD@?</<-,;/+%AA:6ACBDJC#'6+CB<;1:$  ",
"  E@/440)#@4444444440@LBD@F@>00>>>44>FP25488/.8/.8/.8./////95193..88LP3993III333255I32II5.2II3335LDMNDZ`SS`TTSVRUUUUVRRVXWWS```^]Z^ZZ`ZZ`ZZZZZ^`TTZ^^`]^ZZ^^ZZ^^```S`Z``ZZZZ^]]^]]^]]^]]^]]]]]]][][[][]YDQNECEMEHEJJNNMD@47)),67<<;;,,/($+,,6AC++AEEH#)CB;;<:%  ",
"  E@1444+#04444444440@>BD@F@>0>>>>445>LL=4.8/84/.8..88./..//892I9/..5=29.9IP35.5I2235599P29I22335@GMNY]`TSWTTSXUUXUUUVVUXWT`Z``^^ZZZZZZZ`ZZ^`Z^^Z`Z^ZZ]^^]^]]`Z`TT`S`ZZ^Z``Z^ZZ^]^^^]]]^]]]]]^]]]][[]][_ZYGJCCJCHCCCCEJMJEA???7;<-7--,1)$+*+:AC)'AEEEC0CB?7<7$  ",
"  E@/444+#04444444440@>BD@F@>0>>>554444444888.*..88..8./...//5589/1/5I58.83I3325III35595I35PI3325BNMGRZSTWWSSTTWXUUVVVVUWST```ZZZZ`ZZ^Z`Z^Z```^Z`ZZ^^^^^][]^]^Z``Z````Z```ZZZZ^^^``^^^]]]]][^]]][][[[[[[_[XDNJECCCCCCCCEEGNA?7;;--<<-,1)$+*,6@CHCEECC#'CB7;/;$  ",
"  G@/444+#04444444440@2BD@F@>>>>>55444444488..59.88..8.//.5I5I5/./85II5./.85LIIPI2PI252I259IP3I52DMMD`SXSWSSWSSXXXUVVUVXSTTTT```ZZZ^^^Z`Z^Z`ZZ^ZZ^Z^]]^`^]]ZZ^Z``ZZ]]][]ZZZ`Z]]^Z^^]]^^^]^^]]]]][[[[[]^[___]YGJECCCHCCCHHHJD1?;;;;<<;,1)$+,:)BEEEECH$''CB;<<7$  ",
"  E@*444+#04444444440@2BD@F000L>>>54445444888848.995598.1.5PPI5..935595599.4PIIPI2PP325339/.5II9@GMNY^SWXVUXXUVUXUUUVXSST`TST``````Z``ZZ`^^ZZ^Z^^^^^]^]]^^ZZZ````]]ZTTZ[[[]^^Z^]^^]^]]]]^^]][[]]]]]][YDYYRU]_VDJJJJCHHHHHHEE1?;;<;<;;,1)%0BBEJEECH#'::)CB7;<7$  ",
"  E@/444+#05444525540F3BD@@0@O@5>>554445994888..852(3598.89IPP5.93555/823I2IIIPI59PPI2525...5PI5AJMGR`XXUVUXUVRVXXXXXWST`Z`S`Z^Z```Z``Z``ZZZ^ZZ^]^^^ZZ]]]]^]^```[`YDGGDYYU^[[]]]^Z^]]]]]]^][]]][]]][_RQMJGGDYV^VDGJJECCHHCKB77;;;;<<-;/)%AJKKECH$'::,:)CB77;)#  ",
"  E@*0@4+#054442II3>0FPBD@@@000>>>5545555599888893(!!(28885(!%I333.951/89I253III9/=PI2522..5PI2ICMMDT`XWXUXWXVVUXWTWST``T`TSZZ^Z`Z^^ZZZZ`ZZ```Z^^^]]^]]ZZ^^^ZZ`]SDQMMMMNJGDYV^__[]^^]]]]^Z][]][[[[[][_RGJCCEJGDRWTYQMMJGJNE0?,-<;;<--;1)%AJECA$'::::::+CB;<7)B  ",
"  E@)0@>+#05445I%(P=0FPBE@=00>>>>554455%$P248.8893%&&(I9892%&!PPI%*..899229.33995.4=I355I59IPI5@GMNY`SXTXUXXWXXXXWTST`````T``Z`Z```Z^^^Z^ZZZZ^^ZZ^Z^]Z^^Z^]^Z`]ZDMNMNJNMMMMNGDYW[_[]^^]]^Z]]]]][[[]][[_SDJCCGJJNGDDJMEAAAA)?;-;;;;;;;71)'AJH'::::,::::+CB7<7$C  ",
"  G@4444)#04453(&&(I>@IBEF=0>>>2L>54455%%PL8444552(%%PI5895(%(PP(%+95253581.58<<98/5=3552IPII35AJMGRTWXSXWWXTTWSTT`T``````SZ``ZZ`T`Z^^^ZZZZ^^^ZZ^^^^]ZZ]]^^ZZZ[YQNMEAABDEJMMMMNGDRT__[]]]^]]]]]]]]^^[[[_ZDJGEHCEJNMMMC??66?;;;77;;;<;71)'AA'6,,-::++:6+CB7;7$H  ",
"  GA/444+#P32>I(!&(I5==BGF=0>LFP(>5444555=P42PLPP23PPPI58.953IPIP%'3I3259-<--.558/83=25553I3353CMMDWWX`WXSSSSSSTT```Z`TTT```ZZZ``^^`ZZ^Z`Z]^Z^Z^^^^^^^^]]]^^Z]^DMME07<.40ACGJMMMMJGYW[_[[][[]^^^][[]][[[_^DQJCHHCEEJME@??7<;;;;;;;;<;71('006,,,::,:::6)CA?77$H  ",
"  G@/444+#((>=3I($IL>=2AGAP0>LF$%>>444555PP4>=23355IPII2...85PI3P$%PPPI5.1.88335.15I2555525=L9@GMNYTXXTWUXWSWUS`TT````T`````ZZ```ZZZ`ZZ`Z^]]^^^]^^^^Z^]^Z^^^^[RGMJA7.8..;7/0ADGNMMMNGYR^__[[]^^]]^]][[[[]_]YGNEHHHCCEJGA,7<;7;;;7;<<;7/('AC+6::6::660A)CA?;7$H  ",
"  GA/444)#!!$I>=III3=P3AGAFF>=FPP225455>5PP42I99995((5558//8II53P(%PP((I9.9III229/233223223=39AJMGV`WWSTXWTSSUX``ST````Z``Z``Z````ZZ```Z^^^^^^^^Z^]ZZ^]^`Z[Z^[YNQD>.398./<;;;1@BEJMMMNGDYT__[]^ZZZ][][[[[]__WYGJEHHHHCEMB-?;;;;;7;;<;7/(+BJBHAAA##$)BC)CA?;7$H  ",
"  GA1/>L($$!(2>0542IP$(AEAFF>=FFP25548454==84L=II23%&(9../.2I2%(PO!P(%(PI.9II95L32=22I=2955595BNMD``SSST`TT`TWXT``T```Z`STZ`T``T`ZZZTT`^ZZZZZ^^ZZ^^^Z]^Z^[]`[TGMGA2PP598//1/-<7<4ABGNMMMNGYX[_[^`^][]][]][]^_[WYGEHHHHCGG4?<;;<;;;;-;;*''BKKKJEEEECCKH)CA?<7$#  ",
"  JA14>L(#@P55>>44>F$&!OEBPF0>FP=535994944884>LPPPP$!(58..8II5(%($&!%(PIPI(P((IPII3553L255259=EMNY^TXSST``TTSWTTT``TS``TT`Z````TTZ``TTZZZ````ZZZZ^ZZ`Z]]]]Z^_YJMDO(!$P5../--..;;77<0ADJMMMNGDR^_[]^^]]]]]]]^Z][_XGJCHHHEG0?<<;;;;;<<-;4+)BJEEJJEEEEEEA0D@?<;$#  ",
"  NB*/>L)#@L544444>F$&!OEBPF@FFFP2((I3559884444PP=PPP359889553I(%&&&!((%%%%P(%PPII32PI==3I=35AGMGR]SXXSSTTTSWXWWSTT`T`TT`Z``````TTSTT````Z``ZZZ^^ZZ^`Z^^`^Z][DNMDP%&%P5....-/.;;;<;774ACGQMMMGDYS[[][]Z^[]]]^ZZ[]DMMEHCJG0?;<;;;;;----4')CB@AAHHBBCEE#0D@?<-##  ",
"  NB4/0L>$#0>444445=OO(FEBPFFF=PFP((OP3I5844485PI32PPII323992IP(!&&&&!!%((PP(!%P(IIIPI==23=59BNMDTZTSWSWSTSTTXUS``TT`Z`````TT```SXSTS`ZZ`````^Z`Z`Z]^^^ZZ]^[TGMQB9((PI598898/<;<<;-/-;71@BENMMMNGYV]__[[]ZZ`ZZZ[UGMNNKKJA67;;;<<---1--5+0D066:'''''AEA@C0?<,##  ",
"  NC>14L>$#0>444444>FOPPDD=FF04=OOP#OOPII9488885359PP%%(PI('%%%!!&&&&%OPPPP(!&&%%(IIII2222393DMNY^TTSTTWWTW`ZSXT`TTST`TT```TT```SS`TT```Z`Z``^`ST^^][^^^^^^_VGMJA-5III9.888.<<1/.<<.1;<<;<0ADJMMMNGDYX]__[]^^Z]_YNMEABEA6?;;;;<;-,-111)'@E@6::''::6'H0AC>?<:##  ",
"  MD01>L>$#>>4444440FFFPCDPPO05LOO(&!OP(P598.8883583(!&%PI(%%%(P(!&&!%(PIP(%&&&%(IPPII22225.@GMGR^WWTSSXWSUXSTTTT`TST`T`TSTTT```WS```SS`ZZZ^ZZ``Z^^]]^Z^^Z^[YNMG0<55II9899..@BA<</-./-..-77<4ACGNMMMNGDYU^[____`DMMB7;1??<;7;;;;;?7;,/)'@GA6:,''::''':AC4;<'##  ",
"  KD@>@L=$#>544>>44>FFPPBEF=@>2IPO&&&!(((58558.82983(!&(P3*223IP(%%!(P%(55(P(!!(PP((PII3II9.BJMGU`XXSTWWSSXXUS`ST`TSSWWTTWSTTTSTWX```ST``````Z^Z]]ZZ]]`Z^Z^]DNMD/-255599.9@BGGA7<.//....--1.<-5@BEGMMMMNGDYYRVRDNMJ@???7<;76?;;;<<--;4)+BKE);,:'''%%':BB17<'##  ",
"   E@5=4>$#0044>0045FO!!BGAP=>=(($&&&!OPI3823..828.93P(P323P35I(%PP!(PP(592PP(%PPP!&!(P3II95DMNDSSWWTSXWWXSSXSSSS`TSWWSTTWSTWXSSSS`TSSSSS````Z]^][^Z^^`Z``]TDMMB;%%*..999AGMD0?;.9/<..899.99.9.774ABEJMMMMNNGGJNNMC,?<;;<7?77;;<<</118))AEKE06'''':''+BB-;-'#   ",
"   GA5414##044>400>4PO!!AGAI>>=PPO(!!OOPI2488..839.83PP55II5*95((IP!(IPI5.3PP((PP%&&!PPIII.@GMJYZSSTTXWXWXSTTSSTTTTSWSSTWSWWWW`TXS`TXUWSST``ZZ]^`^^^^^```Z[UGMJA;%%.@A4.AJMG@7--<//.9955.-1..81;777;>ACGJMMMMMMMMD0?-;;<;7;;;<-<<;<//8))*0BC0:':,,1*:+CA;<-)H   ",
"   GAL4/4(#044440@05=FP(OGBI3>=IIOOO$OOP2448.8./3IIIII582I5.889553I%%PPI5.5II2IIIP(!(PP23I9AJMGU^TST`WSWUWTTTTTTTTSXUXWSWSTWTTTTWXTTXUWSSS`ZZ^^Z`Z]^^]Z``^[RGME#-8.0EE.@GMNB198//..559.-;;<.99-<-/<7??10ACDEGGGEB)?;-;;;;;77;<<<<;-//4+)B@6,,:'':,+,:)CA677$H   ",
"   JB>/44+$#>444>@@>0FOP@ECI3>=52POO%PPP58448484522LPI59I3..999553I%%PPI33I323IIIIP(PPP2=P5BMMDT`XSSXWWSUS`SWTTSWWXVVWSWSSSWTTTTTSSSSXX``TZ^Z````^]^^^]Z`^[YNME>-.<ANE@BMME0.59988998...8.<.55////-;;<??;/40@@@>7?7/1;;;;;7;;;//--1-/4+0EC),,:66:::)+@D@?77##   ",
"   NB41*/,%#>44440040F@50DD=I@F>53PP(22I2.4589I585I=PP=I388995552P3(%PIIII322552585PI((IL50EMNY^`UXUVVVUSXWXUSWUUVVVVVUUXUW`SWTTSSSXWTSTZ`TZ^````^]]``^]`^[YNMD/-//CMJEJMNB.=F39535.9.8955.85119.;77-/11/<<;7777<-;11--1--------/////4+@EKECBHA0)')CA@C0;<,##   ",
"   MC4144*%$04444444>0>44BG@3=F545225595584=54388=ILFPPI98952((3IP52(I3PI25935999..II!%I2.AJMGRZ`UVXUUVUTSXWXXWUVVRVVRRUXUXTTSSSWXSWXSSS```ZZ`ZZZ^]]Z^Z]Z[ZDMMB;<;0EMNMNMJ@.CG=.59998..99895.;-/-77;-1---1/-/1;-1/;;--<-//<--<771./1/*+AJKKKKKGECBCE#AC4;<,##   ",
"   KD>/444%$>4*44444>>>>4BJAPP585544948*444=58.8=P32PP5.9993P((PPPIIPPPI25..2598.1.3I((299BNMDWTUVVVVXUVVTSXXUUUVVRRURYRUXVU``TTSXT``TT`TWT``Z^ZZ^]^^^Z]^[SGMJA7;7AJQJNNME5AMB//1-89...9.<851/.-----1---7;,/88/,;-<;7;<<1<<<<<;;;-/-/))BECDGJKKKKEEC'BB17<+H#   ",
"    E@/44/%$0444444445>>4AGBPF=8444484484>2448/5=28899.8995I(!&%(PPP3I3239.535598..25532.=DMNYTWUUXXUWWUUWWWWUVVURRRWVRRVXVUS`STTWST`SXZTUS`````Z^]]ZZ^ZZ[VGMG@7<7BNNJQMMEAEJ@</;;....54.//8/-4.1./<<<</--1//<-;;-1<</1----1-11;;;;-4*>CA:)@ABCDEGEH)BB<;;)H    ",
"    GA/5//+$0544444444>>4@EC=F@445>58889833.8.4LI8839.555II(%&&!(PI5./.5P39II222589255I3.@GMGR]TSSS``T``TXWTTSUVVRRVVVUXVVUVXSWWSXXXXUXS`TS```SS`]^^^^^Z^_YJMG07;?BNQJJMMNGME4<1;;/..89888/..-////1<<<<///884-;;-//1/9/-111/;7<<;7;<4)@D@67,:,+0@BEH)CA7;;)H    ",
"    NB8444)!#>40054445>>4>DE@FF>50F5/895.../.4LP5/5I553IIPPPP%!%PP38.89IPPIPI3II29523(PI9BNMGUZTTTTT`TTT`TTTSSXUVRVUVUWWXWWXWWWXUUUUVVVUS```TSSTZZ^ZZ^Z`^_YNME47-;BNNJJJNMMMC-7;7<1///8/88///<-//1<-///88444441;1/1-//.////./77;;7</5+AG@7/**,:'6)C#0C@7--#H    ",
"    MC=L44*%$04>@0444>>>44BJAFF50FI8...888..8=I982I325I%(PIIPP%PI2I98IPP(!(PIIII599I(!%(PDMNDTXSTWWT`TSTTSSWUUVVUUVUUXXUXWSXXXUXVUXVVVVVW``STSWT`Z]Z``Z`][YNMC;7<;ANGEJGJNNMB;0A17<<<;1<</-1/---1/-184445>4---;7;;;;;;<1//////;77;<85>BJA?,+++''''#'AB4</1##    ",
"    MD0L4/4%$>44>>4444>>>5AJBP@5==8448/939..938.2I22II(&&(I3I(%(32I2.5IP%&!PP%!(585(!&&%OGMJYZWS`WX``TTTWWXUXUVVVUUUXWXWUVXXUVRWSUUVVUUUT`TSTTSSS`^^Z`Z`]ZDMNB?;17@JGCGJENNMB;CJ@?;<<<-<<;<<181-////8844455/<-1;;;;--;7-9/-/111--<<4*0CME@-*::''''''BB7-.*##    ",
"     G@-144'!)4*44>0445>0@@ED=P>48.448.538.899/5I588IP(&&(I222(555I38.9P(!%IP!&(285(%&!(AGMGVZSSTTTTTSTTWXXXSUVRVUXUWSWSXXWTTXVSTVRRVVUTT````TTS`Z`^`ZZ`[SGMJA?-BB0EJHCJCENMC4DMA?;-<<<<;;<-<//;<///44541458;.4--/1--;;;8.;-/1--//<4>*@CND),::'''':)BA7;-4H     ",
"     JA-144+!$44440045>>@@>CGFP=853988.858/88/8=I9.853I((I255955993I2882IPIII((25555I(%2BNMDT`STT``T`TSXXXXWSXUVUUXUXWSSWWWTTTSXWXVVVVVS``TZ^ZTST``^````[UGMG@?1DNCGMCHCHCNMECGNB7;1/..<;-</;;<77<-//4>58>=*;<<<*4//1-/1-1<7<8/////501?)AA::::'''''0C07;7)H     ",
"     NB4144)!$44444444>FF>-ANAIF42=48488825...2=2....553I355992P382=28.893255355499953*=EMNYZTT``TTT`TTWXXWTSWUUXUXUUSSWWWXXWTSXXWSXXVVV`ZT`TTTT``T`TTTZ[RGME0?7AJMNMEHHHHEMMMMMB;7//%%+/-</-;---7//845>>0>-85/-18488/8.;7;;-8.88-8>>,7666:::'':'':AB4?;7$H     ",
"     MD>1444$$44////44>F@4-@GBIF=454998/9L5..935./...239952359IP3.3=58.85=255545544999.@GMGY^SS``SXXTTTTSXXSSXUUWSSSXWSSSSXXTTTWXXWSSXVU`ZT`XXT```TTSS`Z[YNMD1;70GMNMNCHH#CMMNMMB;7/*!&'<7;<1111;7-44/8>=>>4525///841-;-/-;;1/////4>4;7:6:::+''''':AB/<;7##     ",
"     KG@.4>0$!)411/444>05454DE=PP8438./8I38/898//....23993((P32I88II38/82L25455554444.<BNMGUZSSSSTSWSSSTTSWUWSXSSST`SWSSTTWXSSSWUVVXSUVW```WUS`TSSTTST`ZZDNMB;;<<BMNNJCHH#CMNNNMB;</.%!+<7-////-<<;44-12>254444444/11-/.88-;;1-;<.50*77,,:::'''''')BA?;7,H      ",
"      JA-4@0(!$411///4444>=9BNA3=8438/.II8//////....93555I%&%P5892I=35./2L22445455555.4CMMD``WWXXTTWTSUWXXUVVUWSSWTTTTSWSTWXXWWTWVVUSXUUXT`WUT`SWST```T]`DMNB7</;4CKMGCHHHEMNEGMB;;-<.../--//////41451*444/4>>4441.88454/8-;;;;;-4>>,7-//,:::'''''0B0?7?)H      ",
"      MB/5@L*!$44////8445>@3@GC32488..2=39..//..1..''9593(!&!P59II5L29//4I323L585I322.0EMNY^TXSSSTSWSTXUVVVRVVUXSTTTSSWXXWWXWXXWXUUXXXUVVTZSWTT```T````[XGMJA?-1<?)BGNGCHHHCCCEMB;;;<///.8/<1//4444554411/5>54141-14//--8/;7;;;;/405;7,7,,:::'''':AB47;;#H      ",
"      MD>8>4/%!044//444444@I4CG@548..5=2228//./...5('8353I(%(I55P28=38828.852LL4553((*@GMGYZSWXWSSSWXXWUVRVRRURVXT`TSWWXWWXXTXUVVVUUVVVVUSTSSSTZZ`T``T`[RGMG071-;<7;@DMJJCHHHHEMB1<1;1.8998/11/4455=>/4===>81485/<----;<94/;7;;-/>0*7;7:,,:::''''+BA<--1##      ",
"       G@<///'!+44//44444505<ANA554/8482PI9././192325533(IIPI599=55P=LPP4/8>23=255I!&%BGNGUTWXVUXSTSXUXXVVVVVXVRUXTTSSSSWUXSTXUVRVUVVVVVXWS`TWT```TTTT`]YJME011;;<1?1CMMMJEECHEMD4</-/.*+*98/<//45>00>L=541-85841<<;;81/94.<-;;/4>0,7;7,,::::''':0B@;-<)H       ",
"       NB-/>2+!$/44/*4//4=@4<@GDI24.4482P3955./1939523I(!!I3298988=PIIPP9.2=L52553I!&(BNNDT`WXXWWWWWUUXXVVRRRVVVXXW`TSWSSUUUXUVUUUWUVUVVUXSZTXWS`^ZTSST`YNMC//1;<<-70EJJJGGMGEJME>;...9%&!*.1-444>5/1/58/<;;1/<45<;;;-;-8/--<;;/504;;;,,:::::''''AB0///0H       ",
"       MD41>04%!1/*884484==418BGF3=25242P33L2...825955I(!!35999998IPI5.584=3=255523I'@EMNY`SWXWTSXXXUUUVVRYYRRRRXUVTTXUXSURRRRRUWWTSVVVUUVXSWUUWSTZ`SSZ`DMMB;-1<<<1<10@AA@0CKCCJG@;'%+5!&!*/-/9/454.-/85541-;;;.5-;;;;;;<;;;;;-8>01;;;:,::::'''''AB...*##       ",
"       MG@/444'!+8**8*448424/<@GB3PPIP58=PPI5..8.5253I5I((55888.88535/.88==52=3332229AGMGR`WWXWXWWWWXWXVVRYRVVRRUUVXSWVVXVRRRRVUXXSTWUUWXUXWVVXWUS`Z`SZSDMJA?</1<<11<;;7?7?@JCHENA;%&'5+%'..--//845955845>L5-;;<-,-;;;;<<<<;;</40>-;;77,::::'''')B@<//'#        ",
"        JA/445+!$4/1//4445444.4DEPI=LI8/82I381/.....2P(II599.88.888.8I584=I52IIII3=5.BNMDW`WSSXVUWWXXXVVRRRVRYRRVXUUUXRRVUVVVVVUUWWWWXUUWSUUVVXUUT```STVGMGA7//<<<1////<<1;@JEHCMA<+%+9....////4455/848-/4321;<;;;;;--;<;-;;;-.504;;;7,:::::''':@B></-)H        ",
"        MC414L8%!)41/444554454-AJA5289./..99//-/....9'!(38888.4I298.9P2.83353I%!(L>94CMND^`SSSWXXXXXXVRRRRVURYRRRUVVVRXRRVRUUVVXXWSXXXUUXSXVXXUVUSSWWXWRGMG0;/1-<-//<<1<11;ANEHCMC1<8.//1--<1/.4455-;-4/;-/1-;-.----/1<;<;;;-.8001;;;-,:::::'''+AA;;-;@H        ",
"        MG0<4>4'!)4/*444555455.0ED254/./../1..<-...8.*+229.889III28.859.83I52P%&(I>80EMNY^SSSTZ`XUXXUVRRRRRRRRRRUVRRVRVVRYRRRRRVVUWXWWWWWTWUXWUUXWWWXW^YGME4<4/////17<--1<;ANCHCMB;;1--</-;-/8458.44;;85/;;;<--/-//-;<-;-<,;-/50><;-1/,:::::'':0B@?;7/H#        ",
"         JA<44/,!%4444444554>=5.BN@9I8..-/.....998.8923359...9III38.8/.85=I55PP(3L>.@GMGR`XUWT`UVUWXUUVYYYYYRRVVXVRVURYRVRVVRRRRRXTWSSTSWSWWUXWUT```S`]YNMC1<44////-;<<</<<BMCHCNA?1-;<1<-11885*-884*;.4/1<-181-1<-;;;;;;//;-80017--44,,,,,,'++AB17<70H         ",
"         MD41444%!)444*44444==5<0EC524../1.../939...935359...83PP5.239883=32352I3=5.AJMDUSXUUVVVVUXXXXRYYYYYRRVXUUUUUVRRVSXVUVRRVXSWXWSXXXWSXXXXST``TZTDNMB;<4/1///<</<11;4EKHHEJ@?1//<;<8./485814845-81-1;-.88----;;;<;;/.<.5@>;;-14>4**1**+++BA?77/AH         ",
"         NJA<//4)!$54444454>@P54ACG@.9/.58.../8I5.//.555598.885P2.9PI58882I3583II>.4CMNDXXWXVVVVUUUWWURRYYYYRRRVUUVVVVRRRSSVUUUXXXWUXWUVVUXXUXUXTWSTWSXDMNA7//<11//--11-<7@JGHHJE4?///<;-89.84954.491-1///;;.98.9.--<<-;<;;/8>@1;;;/>04*+::'''0B07-7)H          ",
"          MB/<44*!!0>4444540FF94CDEB59..39/....95././525258..895..9II588/5I2.5I294<>EMNYUVSXRVVVUUUXXURRYYYYRRVVUVRRRYRVRRXVRVXXXXSXXXUUUXXXUUVUSTSSS`UGMGA7//1/1///1//1<;BMCHCMB7;//1-11.+'*455/-84-;;1.88-155(PI9818/-;-1/5@0-<--4>*,,:::'''AB1</1AH          ",
"          ME0<444'!$L444445>0P50DEDG@958./1..../85./.3I3329..88.888959..4LI5/5=245-@GMGRWUXSXUXWXUVVVUVYYYYRRRUUVVVVRYRRRRRUVVUUXWXXSSXSSXXWXUXXSSSSS]RGMG07/44////4/</17@GJHHGG0?11///9./%!)444/<441/88<-8119I%%P3./84<<1440@4;;-/541,,:::''0B@7<;+H#          ",
"           NB844>)!$05444>542FBDJJCEB559/....../9I5/9I295I59.88898544492==L28>=L=2.AJMGUSWTSSWTTSWUVRUVYYYYYYYRRRYYRRRRRRRRVUUUXWSXXSTSSTXXTSWXXSTSSTTYJME47//4444///<1;4EMEHCMC;7/.88899/*+94485/8844448-;-.3(&&!(51-<<;-/5@0<;;<851,,,::'':AB17;7$H           ",
"           ME@2=04%!0>>444>@BENMNJEDGF99......./.22.9I9/8I39588995PI254====I=L=L=59BQMDSWWTWXSTSWWSXVUUYYYYYYYRRYYYYYRRRRYYRRUVXWSWSTTTSWXXT`SWUXTSWTXYNMD1;/////4////<1BMEHCJJA?<*+*99/1.95554/454845/18/--.((!&%P51;;-1180@4;;;/5*,,,,::':)B@7;;<A#           ",
"            JA2=>4+!$@A280BENMMEBADBDC599/....../89.838/8II598..85PI388=L32IPI3II.5DMNY`XXWXSSSTWWWXXUVRYYYYRYVRYYYYYRRRRYYRRRUXSST`T`SXXWSTSSSWWTSUXTDNMB;<////4///4/;AJNCHEMB;7.*%(I588425*14/.448/451;--195I(%(391-;-485@0<<;<84,,,,:::::@B47-74H            ",
"            MC4>>//!!AGAADJMNEBOII@=BJ@.9...........9I9.852259..89LPI55PL555IIII3.0GMJY`UXXXSSSTSSXXWVRRYYYRRRRRYYYRRYRRYYYRRVWWS`T`TTSXWSTTSTTSSTSUXSDMNB7<8//////44;@GMECCME0?/9(%$PII355.-.8/188.45441;/223I3(*..4-;-/80@/;;;</*,,,,,:::)BA;7;;0H            ",
"            MG@<81/+&#DJJMMGBFIIP2<@BED599....889..89II8.85II58889IIIIPPI239II5I2<@GMGRUVXUXSTSSSTWXXVVURYYVRRRYYYRRRYRRYYRRRVXSSTTS`TSWSWSTST`TTWWXSUGMJA?<////444/<@EMGHCJNA?.93%!&%((5.99/944188/55.5>1-454559.11/-;1/5@0;7;;<*1-1,,,:::@B07;7,A#            ",
"             MB-<11/!!ANNGBAFP=2>5-AGCGA.58........8.2P5/5IP=29885LIIII=PIII259I2.AJMGVVVUXXWSWSTTXVVUXSUYRVVRRRYYYYYYYYYYVRRVUWSTTST`TSTWWST`SSSXXXTRGMG@?<1/////<<@EMJCHCMB;<5((!&&&%(*.2('9444/1189455/<-1<-.599.---/4@@/;;;--*,,,,::::+AA;;<;%#             ",
"             MG@</1/+!$DGA=2>@@5459ANDDE@95898./938.85P2/5III35884=P=I3PP=II359I58BMMDWUVUXUXWWSTXUXXXUSURYRRVRRYYYYYDYYYYRRRRVXS`TTT``TTTTSSWUXSWUW`YGME4?<<;<<<<>BGMJHHCKC/7/8(%%&&!(5.52%'8.89--11/5*1./<---152(9.-1.0@>;;771/11**+::::@B47//;)#             ",
"              NB<1*1/%!HG@944>>89PAEMDAGC55235..2I8.5IPI5II3I329995PPIIII=I3II3L95DMNYTURVWXUXXXXXWSWXXWURYYYRRRRRRRYYYYYYYRRVXUXTTSTT`TXWTSUVVUSSXS`YNME0;114>0@BENMJCHCMD>?4445PP(%(I9..5*44.98././.%!,8/<<--.5%!(91.5@@<;;;7--,125,:::)BA7784<@              ",
"              ME0-///+!$BA9448.9FDNMMB9BMA.5I2..8.8.2I3LPPL33I22982PP=I3IPI35III.>EMNY`VRUWXUWXUXTTWWXWWWURYYYYRRYRRYYRRRVRRVUWUUXTWXSSSSS`SXXVUTSSTZYNMNDBBCEEGGNMJECCEMG0?14485III%(988-18955*(55559%%,<-<<--9(&&%589@@41<1/-,;,*4*,::,@B)7--<>#              ",
"               NB<152/%&(0>8..@BJGBDMB-=DG0.39/....4IP2III5III3I59IP=II3IPPII=I3.@GMGRTVVUUXXXXXWTSXWWXXWWVRRRRRYYRRRRVRVUVUVVWSWUSTWTTWTS`TXUVUTTWT`DMQJMMMMMMMMMGCHCJME@?/44885289((58/--8493%&%55258*---;-/1.8(%(990@>14111----4*,:::)B@7;<;;@               ",
"               ME0<35/+!!AB0=BGQDF=DNA99@JC594//8.9PI2=3I39IPII2295PPII33PPPPII3<AGMGRXVUUVUVUXUXWSWXXUUXUVRYRRRYRRRRRVVUXUXUVWSXWT``TTSSTTSSWWWXSS`XGMEHEJJJJJJJGCCENMC07<454/85545.938-18.15I%&%./45548/--8411.99982@@;84-11-,,,4*,::,@B>;1;1@H               ",
"                MB<.11/%&AJDDMEA=.@GGAI=9BMA.541.4IP98P=II59III2395P=III3IPPIII2<AJMGVUVXUVVUXUVXSTTXXXVUVRYYRRRYYRRRRVXWXUXUVXXXSSTT```STTSTTSWWSS`RGMC#HHHCCHCCCCJMMD4?/445>4455241/94/89.1932(9./18548/1858<-11.89@@/<1<-881,,,,,,::)B@9/<;>H                ",
"                MG0;/1/*!!BMJB@29.AJG@3=5>DG@.>4/5P9.5L=I29.5PI3I52P=III3PPPII=5.BQMDUUUUUVVXXWXUWWWXUURRVRRRRYRYYRYRRVWSSSWXUXWSTTSST`ZTS``TTSXWSS^YJMCHHHHHCCCEEKNGB07/444525==>341188..832995958.1/8841-1/1<--/880A>-1-<;/24,,,,,::,AA1-1<4AH                ",
"                 MB</8/4'&#GD=I>8.ANE@555-@GD59=889.82II4.8.4PIL2IPILIIII35IPII.5CMNDWUVVVVVXWSWXWXUUUVRRVVRYYYRYRRRRRVXSST`WUWWWSSTSS``SWS`TTTTSST`YQMJGEEGJJMMNJDA0<;844484255LL>55255992((35*.59/11894811/----88>@@15414/14*-,,,,::0B07;74AH                 ",
"                 MG@<///*!!BE@L>8.BMDPI5<0BCJB.2I988.2P2.9I22PPI3IPIIII359/5FP2.>DMNYWVVUUVUXWXXXXUUXURRVVRRYYYRRRRVRRVXXWWWWXWUWWWTSST`TSWS`TTTTXWUDMQMMMMMNGEBA@1??<8844444>>42=4.2P((23(&&(I995988;18-/88/-<</88@@*1>44441,-,,,,*:,AA1;;-@H#                 ",
"                  MB1</1/'&$B@3489BMCIL><>DDDG@.=28882P89IPPPIIPI3PPII39.92POFP9>EMNYUVUWWXWWWXUWUUXXVRRRRRRYYYRRRYRRVVUXXXUUWUUXWWTSSSTTTTSTTSTSUUVGMQMMJGDB@4;77;;;///45552=L>555*9(&!(3(!!(53((398---;14//81.48@A><<;/4411---,,15*@B0;-74AH                  ",
"                  NJA<//1/%&+L5485DMB35/<0ENCEE0938899582P=PI28IIIIPPI8.8=POFPF50GMGYXVVXXXUXXUUWXUXURRRYRVRYRYYRRYYRVUUXWSXVXXUUWSTTWSST``SST``TXSRGMNDBA@4;;<;<//<<//842392=4*5>>59+!%P59((I3P!&(5.--;;/1-/889.0A@<<<;<//11*1,,,,*>A@/8-1AH                   ",
"                   ME0</1/*!!224.>DMB2-.AEGEGCGD2538888883IPPI99II3PI9953PFFPPP9@GMGRTVVUUXXXXXXXUUVRRRRRRRRRYYYYRVVRVSXVXSXVUXVVXSTSSSSW``TST``WWZYNME07:!'//8811/<///453P(3P58>0>559*559.952I(&&(9---111;</888>A@/<-;18/1-124,,,+*AA1-4<0H#                   ",
"                   JMB-/*18'&%L4.0EMA.5BNGA@BFAQB9258998.4PPLI28=III52PPPPFOFFP.AJMGVSVVUXXXWWSWUVVVRRRRRRYRRYRRRRUUVUSUVUUVVVVUUUWTSSTSXWTTTST`STZDNMD1<%&%4///<<////452I(!%PL2>>53485./..5393I($2.---/81;-8485@A4;<<;//---15*,,+*@A0;-;4AH                    ",
"                    NG@;/1//!&)2.@GJA@DMCF55252BQA92=I2883PIII395PL33PPPPPFFFFI.AJMGUSVVXXXXXSWXXUUURVVRRRYYRRRRRRUUUWXUVVVVVVVXXUXWXUWSXXWTTTWT`ZTDMNB<9*'+.//8.</./8545I$&!PL>>L>>5458-<4I5/599359-;199<<1884@A4--;;<8/<11-,,,+*>A@;<<<@H#                    ",
"                     MD4.4//,!!>8@GGBEJBII=>889>CNA9IP2.2==I3II5.2P=PPPFPPPPPPI.AJMGXWVVUXUUXWWXWXXVRRRRRRYYYRRRRRVWSTWXUVVVVVVUXWXXUUXWXWWT`ZSWT]VGMJA788..///9%!'.845593P((L===>55>=4//<1/8.5818198;<4/;-8.4@A>-54-;158--1,,,***AA/;<;4A#                     ",
"                     NNB55418(&!9AGNMEA32>==5145@DJA.I38L=I=IIII99PPILIPPPFFPP=8BNMDXXVVUUVVUXTWUXXURRRRRYYYYYRRRRVXWXWXUUUVRVVVUSSXWSWXXSTS`ZSVX]YNMG07../-11/9!&%9845485L55==>>5545L4/4/-//1/8148/8/<<<-898@A0;-441-154---,,12*@A47<;4AH                      ",
"                      MG@941/4%&%AJNCF5544P=4*5=9@DG@9ILIPI5==IIIIPPI=LPPPPFFFP9BNMDVXVVVUVVUUXUUUUUVRRRYYYYYYRRRVXWXXWWXUVRRVVUXSTWWSWWXT`TT`TXSTDMMC1;.//1///9+'*9488845=5.2=0>45/45/844//1-88424-18<</488@A0<;;11-<1441111*1.0A07;;/@H#                      ",
"                       MD=.////!&AGBPI2495P5/5554-@EG@9P==282=P=IPIIP=PFP=PF=FF8BQMDVVRVVUVVVUUUUUVRRRRRYYYYYYRRRRUXUXXUXVRRRRVUWWWTSWWXXS`TSTTS`XGMNB7<8//./<1.999558/4552>/5L=>/548481//144/448458.9-/488@A@-;<<<<--/441111+,*A@<;-;0A#                       ",
"                       JNB<-//8+&!@F@>4=P=8//52941;@GE@5=I9.84=P=I3IPI3PFPP=4FF4BQMDVVRVUUUUUXXUUUVRRYRRYYYYYYRRRRVUVUUVUVRRRRRUWSWTTSWXWWS`TSTT^RGMJA7////8/--/9885398>55254L3>>/98425/<1-/44844188//144.@A@;<<;;/1;<1/*1-111*AA1;,74AH                        ",
"                        NG@71//4'&%@@4=FP5/844>=5.;-FGD05=3985PPIIIIII2IPPPPFFF5BNMDUVRRVUVUWWXUXUVVRRRRYYYYYYYYRVUXXWUUUVRRRRVXSTST`TSXSSS`TWWT^YNME4;8/8*%+<</8.92818555>4/L32L845>22418485///41//--49.0A@@4<<;</8-;841--,1*@A0;-;1@H#                        ",
"                         MD4;444P$&$@0@F=88444>PI5@A@AGD@IFP2=P=IIIIIIIIFPPPFOF5BNMDVVRRRVRVXXXUXXUVRRRYYDYYYYYYRVWUXTXXURRRVVVWSSTTSSSXWTSSTSX`TDMMB;///4'&%.;;/8529./.45551/5>L44L2*44542L51/48111188.0A@AGB4.<-/4/44/11,,.0A@;--<0HH                         ",
"                         JMB-14=P5!&(@F=584548=I=BGMJDDGD@2PLPPIIPIIPP=IPPFFPOO5BQMGYVUVRVVUUWXUXUVRRRYYYYYYYYYRRVXWWSWWVRRRVVVXSWSSUWSUXSSS``WZVGMGA7///.+%+4/-/533239.823I255>=45=54//2442/1424-1/49.@A@AGJMB4</8./54---1.5AA1<-74AH                          ",
"                          NJA;1>58)!!0@=2442PLP.@JMDBDGDGD@9=PP=IPP=PP=IIPFFPFP5AJMGRUUVVUUVVXXXXUVRRYYYYYYYYYYRUUUSTWXXRRRRVVVXTSWVUWUUWWSSST`]YNMD47///1/9888452I(!(I983PPII22>85=L4.99824-1455//459@A@AGB@BB1<111/4*--1*5AA4--<1@H                           ",
"                           MG@;/*.4+&!0=>4443PI.ANG@.2BJDGE@9PPFPIIIILP=IIFFFP39AJMGRSUUUUVVVUXXXXVRRYYYYYYYYYYRVVVXXXXURRRVVUUWTSUVUXXWWXXWSTZ]DMNB;<1////48/4585P!&&(395%!(552=55==53II5254//458499@A@AEA7?/81-/1<15411*4@A4.1;1@H#                           ",
"                            MD0.44.5(&!L=4484PI5AJG@9.4CJCEJA2IFPIIII=P=IL=FFFL9@GMJYTXUUVRVVUUUXUVRRRYYYYYYYYYRVVXXXXUUVRRRRUXSSUVUUVXWXXUXTT^VGMGA7//////1/85L23P%&!PI22!&$II3LL3=II%%II*.441/5485AA@AGC7?1</--/5/4211**@A0./<;,#H                            ",
"                            JMC51444F$&%L>8.ADP5@GNBI5.AMDFCJB53P=II=IPIIP=PFFOI=DMNDWSWWUVRRVUVVRRYRRYYYYYYYYYRVVUXTWVVVVRRUUXWXVXSUUUUXWUXWT^YNME47/4/<///853PPPPP((3IIIP(IPI2(>LPP(&&(I41/54459>AA@BNMEA;/41-</45>41*9@A@.<14/+#                             ",
"                             NMB1/44>2%&%L8@GD=95BMEF98BG@.FDGB=5PPLIIIPIPIIFOOF5BNMGRTWWTTRRVVVRRRYYRRYYYYRYYRRVVVXSXVVVVVVUXXXUXSTSXWXWTWXX``DMMB<;/////4493P!%PPIPP222335I39(!$IIP(!!(I255>2590AA@CEBGMG@<<-<--1551490A0/--/.>A                              ",
"                              NJA<84*55!&%2BMB352OGNB95BA.4BDCGD@5=LIIIPPPPL=FFF3@GMNDWSWSXRRRRRRRRRYYRRYYYRRYRRVVVXXUUUUXUUXXXUXWUXTWUSTWWWXZRGMJA;/////4/45L$&&(FII=552I59958*$(9533((PI255559@BAADE0<BNME@<-1--1/4*90A0<<-</4AH                              ",
"                               MGA-44444!&$CMBIPFPBME09235.@GEBEEA53PIIPPPFF==PPP5BMMNYWWURRVVRRVVRRRYRRYYYYVVRRRUXXXXVVUWXXWWXXSSUXSWXSSUUWT`DMMD4;++.848/4=P(!!PPPL==3(!%I3I49PL/1895I2555255@BAAEE0?;4BNME@<1/844*80A@/<-<<8AH                               ",
"                                MG@.=5445!&#GGFIF5@GJA5.==-AGMGBDJB52P==IIPPP=I=F3@EMNQYUWUVRRVVVURRRYYRRYRYRXURRXWXWXVVVWSXXXXWTTSWWXXSWVVS^RGMNA;-%%994884=LPPPP!$@=PP%&!PIL385L4//25..8455>AB@.BMD/<4.@DMMD0<895>.0A0-./-;-@B                                ",
"                                 MD@5244=F!&HQDP5.@GJA3559FEMEDGDDGB=5IPPIIIPP=PFF5AGMNNDYXWXUVRRVRRRRRRRYRRYVSUVXXUXUUUXSSSWXXTTTSSSUUSWXX``DMME0<5'!(5955>>3=PPF#(@44L(%(3IPI915>18L552598@AAABB0CG@-54.@EMMC>.@@.5A@8.4/<;0B                                 ",
"                                  MD0.4=PPP!&HQDAFCNJA35<=DMG@5BGDDGEA55L=I=PPPPPFF3AGMMNGDYRXWUUVVRVRRRRRRRRVXWXUXUVXWXWTSXXXXWTTSTTWSSSXS]YNMQB<9(!&!(((04*>==P@PP@>>LL33I((P5.5L*-422252@BABEMNA0A@///1/AEMMCADA4A@;/58<;0A                                  ",
"                                  JMC4<PF=PP!&HGJJMNC=3.4BMGA.8.AGECDJB093=PPPPPIPOF3AENMMMNGDYYVUXUUVRRRRVVVUXWXXXXUXWXXSWXWSWSSSSSXXSSWX^VGMME0,(!&&&!%(0>>====L=0@0>=25PP(%PP525/-855+@BBACGCBGD4.=411//.AGNMJB>A@1;<1<7>B                                   ",
"                                   NMC@IPPPFP!&#BCDB=I91BNME=9I9<BMCFBGEA55IPPPPPPPFFI@BEJMMMMNGGDYYRVVUUXUVVUUUUXUXWXXWWXWSSSSTSSSXUXWXW^UDMMG@;+%%&&&(II2=L2>L==0@@04=IIPP!&!((2I4459>ABA@BE@/4@@5944/,8489BNGA5@01.<<;;>A                                    ",
"                                    NJEBFP>>FF!&%IPI55.AJNGJDF32.BG@.@CDGB@92IPPFPIPFP33@ACGJMMMMNNGGDYYRWSUUWSXUUXUXXWSWWWST`TSSSTSSSWT]RGMNQB<-**($!%(I353=>5>00@@@@=LPP(%&&&%%(I293FABA4AG@7/...99..114585BGA4A@-;41;;0AH                                    ",
"                                     ECEDF.4=FF!&%3FAIAGMDFBJGAIIAA9.@DDDGEB=5PPFPIPFFPPPIIFACEJNMMMMNNGGDYYYUSSXW`TSSSTTSSSSSSXXWS``T^^YGMNMB17/8992(%I553I==5=@@@@@$!PF(%%&&!(P3990AAA@,>GE47.9>@AAA@.11/.@D@>A@58.5-;0BH                                     ",
"                                      DCEC>.45LF$&!AGDGME@3IAEMBIP35.8CNGDDGDA33PFPPPFFFFPPPI=FABDGJNMMMMMNNGGDDYYRXS`^^^`T``````T``SWVDNMQNB1;//8495((=55(PIL==0@@@0%&(PPPP(!$PI5>ABA@BB)@JJB@@BDGJJJE@-11/00@A0-98..;0BH                                      ",
"                                       EBED@.5@FF$&!AGMJA3FP5FDBI3I5<@EMDDGDDGDAI3IPFFFPPFFFPPPI3LFABCEGJNMMMMMNNGGGDYYYRRRUUXUXUVRYYDGMMMGB1144//9*(>=II(!%PL====@@L0(>IPFFO((I=@BBAADE@,@EMNGJMMJGGNMC/-485@@0<<4/;70B                                        ",
"                                         CGGA5FFFF(&&ODNBIPFPIPP255<5DMD0@DNDBENDF33PFPPPPFFFFPFPPIPII@ABBDGJJMMMMMMMNNGGGGGGGGGGGGJNMMMMD@7<4//489%&$LIP(!%I==L00=>5L@L=0@PPP(FBBA@BGMG0,5AEJGGDBA@ADND4-8>@@4./1/<;@B                                         ",
"                                          CEGBFFPFFP!&#DNBPIPI2523.8BNGA..=DJBFBGJCFIIIIPPFFPFFFFFPPP=IPP=FAABCDEGJNMMMMMMMMMMMMMMMMMMJEB47<////849'!(L===PP====@@P=550@0@P(%OBBA@/4AABNB*.5@AA@>/--.AMB1.0@@49411-<@B                                          ",
"                                           CENBPIPFFF!&%BQDOIPA@I2.@GMB534<BME>9FBGNDAI2IPPFFFFPFFFPFFPFFFFFFFFFFAABCDEGGGJJJNNJJJGGEBA0;<4//////482=L=>>LLL582=@PPF==@@=IP$&HBA@;<4/<4DNA.1..--/-*4.BN@<@A0/4341-1@B                                           ",
"                                            CEJB==FFFF%&!AGJDEGAP52CMMB=352CME099IOBGGCA=22IFFFFFFFFFFFFAFFOFFFFPP=254>@@AAAABBBAAA@01<<444/////44452=055>==585=FP$OFL=>0ABH#ABDA-*4//.AJD>-/998...9AJB.@A0-.455./@B                                            ",
"                                             CEJB=FFPFF$&!ODMJAPI9AJJDGDAADNNB2I=.<.@BDGDB@23PPFFFFFFFFFAAAAFFFFFFF=59.<<<</<///<;7;</44441<//4/44555=0=>2>==>>PF$!%(PFABBBBCEJB1114555>CMA./5BB@>@BJB5@A>1-/4495AB                                             ",
"                                              CCEA2FFPFFO!&$BA2I5@EMDPAJJJNGB=IP55@ABBDDGJECA@I=PFFFFFFFFAAOOOFOFFFP=>444884/84444///44//441//4845>>5==5>2>L=L=P(!&&#ABBB0@DGNMB<4444422@GE@-5BMGEJGA>@@4955/1.0AB                                              ",
"                                               EED@IFFFPFF!&!+LBBDNG@.3DMDAOI3=90CGMJEDEGJJGGEBA@PPPPFFFFFFFFFFFFFPP=L5444444444444//4444/44//444552>0>4>=L2253PO#&!ABA04-0@@DME04=411/45BMB1-0BJGB@@@04--148;0BC                                               ",
"                                                JMEA2PFPPFP$&&%BGMMB955BMB5IP=.0DMJBFFFOABGJEDGJEBAFPIPPPPPFFFFFFFPP==5544448444444////4////4/84>0>>00>55555=@ABBB#HBCBB080>8AJNB8>41111.@GD/-10A@>@@4/5/11.5@BC                                                ",
"                                                 NMGA==PPPPFP!&!ODJD@59BMDPP=5>DMJB53P=II=AEJDABDGJGDBA@=523==PFFFFP=355554444444444///44//4444>0>23=595>@@ABDCBBBCCEJNND040>@DME0.4//1/4@GD18>940@0/<4>259@BD                                                  ",
"                                                   MJB03POFFFF$&&$ADA99ANEFI=9AJMD>IP====PIANE>3PFBBDGGECBA@=233PPPL355554444444444444444/<///88545=0@ABBCCCBABDEGB@@AENJA-0@@BNNB/40>44.ANA<50@@@5.5=5259@CE                                                   ",
"                                                    NMDA5PFFPFOP!&!(=39AJGF5=IBNJA3F@=PPPF2@GB8II2ILP@ACDDEEDCBAF@@=59..../<</1<<11/</<<<;;</40@@ABBBCCCCBBCA0BEMJA;<.AGJA;400AEME@.>=9.@GD480@@04</LL255ACC                                                    ",
"                                                     NMGB==PFFOFP(!&!(5FGNA9I=BMG@PFFFPII==FB@5===255.9BGDDDDDDEEEDCBBAA@@@0>4444444>00@@AAABBDDDDCCCBBCDEGNE04@ENB/4.@GG@7/4>@BNMC>820BJD05@@01-1454//0AC                                                      ",
"                                                       MND@3IFFFPP>%&&%PBGGA22BNGFPFFF=@@2=FP====252233@DJGD@5BEDDDDDDDDDDDDDCCCCCCBBCCDDDCCBBBABDDDEGGGA@ACJA<4BME>.5BNB<144>0AEMNECCGJC00@@>8</5L/</@BC                                                       ",
"                                                        NMGB>33PPPLLP%&&%ODC>3AGJAPFFP=BEBFF==FP==255=I.AJG@</AEJGGB0>0BDCCDBCDBBCDDBBB@00>444.0DJDAACME47.@B@-4AJGA@CNGA..44>>2BGNMMJDA@@@4-531/>2.0ACC                                                        ",
"                                                          MNC@>PPIPPPP(!&!(PLIFDMDPPFPPADNECB@FPFF>>255.@GG@<88ANNB>-</AEGGB@DJEDDEEEJD)?1<18480GE0;.AJG@/45=>4.@GNEEJMNEB>.844>0ABBA@@@@@*<<2L4;1LABC                                                          ",
"                                                           NMGBBAPIP=IPO#!&!$>3FDMBPI=PP@EMMD@=PFP2=25590EMA<8.0ENA.44/-BNA44@DMD@0@ADN0745>>>2@DB;/.@GNA40==04->DMGA@BJMNDA48>0>*5>>0@0448-845/;0ACC                                                           ",
"                                                             NEEJDOIPIIFFF$!&!$(FDMDF239@ENB@@0FP=L=55L54CMB/48/CMB484<4EB;//;BMC7;1<AD0<45=544>@04>5@EMB>@@@=//4BNG0;>ADNMGDCB@000@@@51.55189.4ABC                                                             ",
"                                                               CEJE@IPPPPFFP$!&!%0BGGCA@BNGALFFFPL>224258BMD48/>EME4//7BJ074/<BMC;;1<40444454>>44>L0>0CMD0>>==4/9AGNB-<8@BGNJDA0@A@@*85/852/;5ABC                                                               ",
"                                                                 CGC@L33PPPLI>(!&&%OBGGGNMD@FFPFPP=25555.ANE0<8BQNG@<;0GB714<1BMC/1444/4>L>44>=000=0L>BMG@4>=0>48@DMD>45=@ABA@@A@00>-5P//4540BDC                                                                ",
"                                                                  GMEB@52PFP=PPP(%!&!#ABBDAPPPFFP=I>45>4.@GJ@<BJBENA;<CG4?1/<1CMGDCDEC040===5>0=0@>>0=AJGA00>=0445BMNDB@@0>@@@@0>004/45.-0@BCC                                                                  ",
"                                                                    MNEB@2=PPPPPPP>$!&!!'(>LLPPPP>5==455.0ENA@JB/CMC;@MA7<11;/CMGCCCDB44>000>4>>0@000>AGNB>>52>*4@EJEDA@@@AA@)*45>>2>8-@@BDC                                                                    ",
"                                                                      MNEB@L=I=PP=LPP(%!&!!$00LPL25=P>5>.5DNDED1;BME0DE1<4//</CMC/</1/544>>>=54>00@@>5@DMC>>>444>BDA@00@A@@@04>44523=0@BDC                                                                      ",
"                                                                        MNGB@>23I==IIIL>(%!!!!$(>333L=>=8*BNMG07<@GGDG@7441/</CMC;;//.40@>>>00>=L0@@0>0DMJCB@95L>0@@0@00>>=@00@05450ABDC                                                                        ",
"                                                                          MMGBA=2IIII33III>(%!!!!$')>L>229AJGA;/-4DMMB714//4<<BMC;<48;>DB5>0000==00@=@CGGEDB0>@@@##(0>>=L0L54*>L=@ABDE                                                                          ",
"                                                                            MMGDA@3223I==2323>(%!!!!!$$)59@DA</411BME0;4/1/4<1CMD4<4*>CNA>@>>>>=>5>L5@BAA@@0####((>5>2L0@00=5-4@BCEE                                                                            ",
"                                                                              MMJDB@=225232555225((%!!!!!%$()+*//<AEA;/4////ACJNJDBBCEME@L@L055>>>>>>000#####()>52L44>000>=>0@BDEE                                                                              ",
"                                                                                NMNGCA@55552225552LL00($%!!!!!!%%%'0++)**4//ABBBBBCCCBBA>000@000######$$#((0>552>==//4>>>0@BCDE                                                                                 ",
"                                                                                   MMJEBA@=2555542@0LL0L>>)+%%!!!!!!!!!!!$$%%%%$%')0$#$$#######$$$$((>>552LL>4=>===8.80@ABDEE                                                                                   ",
"                                                                                      MMJECA@=5999=0000>>>44444)+++'%%%%%!!!!!!!!!%$%$$$$$$#(+)>>>55LLL>>>000=2595L@@ABDEE                                                                                      ",
"                                                                                        NMMJGDBA@>5>0>5>>>44444444444444****)))))((>5>>00>=LPL/5>LL5>0==>5==8555@ABCEEE                                                                                         ",
"                                                                                            MMNJECBA@0244844444444444444444444445>LL22L000L==@>>5=05922555>00ABBDEEE                                                                                            ",
"                                                                                               KMMNJEDBA@@>488.//////44444444445>>===>0====>22==8959500@AABCDEEG                                                                                                ",
"                                                                                                   KMMMJGEDBBAA@054.....<-<///8452225595559555LL0@@ABBCDGGGG                                                                                                    ",
"                                                                                                        KMMMNJGGDDBBBAA@@000>>0000@@@@@@@AAABBBCDEGGGGG                                                                                                         ",
"                                                                                                              KKKKMNNJJGGEEEDDDDDDDDDEEEGGJJGJKKJ                                                                                                               ",
"                                                                                                                        ECCCCEEEJKKKJKK                                                                                                                         ",
"                                                                                                                                                                                                                                                                "
};
