static char * trollcoin128_xpm[] = {
"128 128 64 1",
" 	c None",
"!	c #FBD96C",
"#	c #FEF99F",
"$	c #DFC838",
"%	c #F4DD18",
"&	c #EFD814",
"'	c #F9DF17",
"(	c #F8E207",
")	c #FDF518",
"*	c #E3D941",
"+	c #AFA031",
",	c #C7B01E",
"-	c #FAD103",
".	c #EFB901",
"/	c #F9E204",
"0	c #FBED07",
"1	c #F4D804",
"2	c #E8B803",
"3	c #EBC904",
"4	c #FDF308",
"5	c #FFFC06",
"6	c #E4B601",
"7	c #C89203",
"8	c #977D19",
"9	c #896907",
":	c #6E6013",
";	c #4F400C",
"<	c #58531D",
"=	c #E9AA1C",
">	c #EEC803",
"?	c #383313",
"@	c #E6B906",
"A	c #171920",
"B	c #989134",
"C	c #171601",
"D	c #E19E0A",
"E	c #010302",
"F	c #E5A901",
"G	c #E5A902",
"H	c #080605",
"I	c #F4D802",
"J	c #000000",
"K	c #EDC701",
"L	c #3E0E04",
"M	c #000018",
"N	c #0E0000",
"O	c #E68B1F",
"P	c #ECB836",
"Q	c #D20000",
"R	c #BD0000",
"S	c #CD0200",
"T	c #B00000",
"U	c #C70000",
"V	c #940000",
"W	c #CE0000",
"X	c #DB0000",
"Y	c #D70000",
"Z	c #EF0000",
"[	c #FF0000",
"]	c #F40000",
"^	c #EA0000",
"_	c #DF0000",
"`	c #E60000",
"a	c #E20000",
"                                                                                                                                ",
"                                                         !!!!!!!!!!!!##                                                         ",
"                                                   $$$$$%&&''()((')*'**!!!!!#                                                   ",
"                                               +$,$-.-//0--0123&&&&(/0405))))!!##                                               ",
"                                            ,$*%(---1677899::;;<<<;;:::987,3/55)*!!##                                           ",
"                                         ,=>-/041789:99;?;8$&*%*****8;<<<;:;;:86055)!##                                         ",
"                                       ,@-/->3,89:;:%$988:?:*))**)*)<:,;?8;:9<;;:9,/55*#!#                                      ",
"                                    +,@---2799:<;8:;*<,)))8AB)*****'$));<)8:,C;:;9;;:,/5)*##                                    ",
"                                  +,2.->D998,<:+A+),8<)&**';<)*****'*)*?8)%(,E@(C;538:<8354)##                                  ",
"                                 76F..G99,&'':,)?<')9A&)'')?+)%'%)*%')*A+)'):E8&?:5(78:;;:35/*##                                ",
"                               7G6>.7898''%%%%&'9A&),A?,%&99)&%'')%&')+A,)');?C?,5,C9,8;;8;:354##                               ",
"                             87FDGG99:A7'%%'%%%',H,)>7?C?<+)****!*****<A90/3H88H04C;505&C;08?915)##                             ",
"                            7677799,&8A,'&''%>&-6H?@&'%$$***********!!!!!!*8A:IH9)J95(057J,59:;854!#                            ",
"                           72GD79::+=)7;'%%.@>(078,&&=@@->KK11(11(0(1(1))**!!!!BC,;C)5(43J95;?B<;35)##                          ",
"                         B7FG6798?CCH;8?,'&121'&%''>>>F.>1>>'>>')')'0''))///('!#!!$C;155:H&&C<$*+?845##                         ",
"                        7DDG79:;@7?D8;CE;(11&&&111((>31>>11>1>.1111(()00((((1I//)!#!<;9:;,5;C))!)+<<35!#                        ",
"                       7F7D789CCG-::(-G9;@->->I>1(0(131((((>>>->K-1((004000000((0//)!#!&55,J85))):<:?,5)#                       ",
"                      777G77--7H;-DL96.-->>K->-..11(/1K/(/1111>..->11(()((0)0/0/0004/)!#!,C;555)%?C8,?85)##                     ",
"                     777D79;;9>9E8-;E7>@...>.GFG22.K>IK3(II1332.2->>(I(0/0//00/40000440'!#B;,,,5;H&5)&;:4)##                    ",
"                   :77778;C;LJ:-;H997...22.2DG...G2.K/13333I3I1>K0--(/((I0(0/400004004)//)#!<C,+J,500))<;0)#B                   ",
"                   777799;D..:CG7C9..GF.>F2G677G6GG>.KI>>13II13I>>II40/(/((/044044)0)000000)#!9J85)4)4)5:;40#B                  ",
"                  777897:GG22G;677-.FDDD7D6G6D7F2DDGGFGKFKK>I1IIII((00(4/////000400))4)40(0/0!#<8)&(4444)9;00##                 ",
"                 77779G7;.D62F:2G.6GG7777GDD7D7GK277GD7GD62.>KI/I1(545,:5/((//0/4)4)4)4000404/)#BC;&)4440)8;44#                 ",
"                8677:;87C9-.F:8.GGDDG7777GD7DDDDDD7DD7DD7D>FGK(131I,,38E84/1/004)))4000000000)0'#+I)))444&:<<45#                ",
"               8FD7:;C?G:JC;C9.GD7D77777DG77GF7DDDDD77DDDGG7GG>K1/58EHCJH?,4/(0)00044000/4)/4(/00##4))4058?9::5)#               ",
"              9FDD8;:777G9;:7.GDD777777D6DDDGFFDD77DDDFF6FDD6DF6I(,:HHHAHJC,0((00//04/00/445)444)0!#)4444058::85!#              ",
"             <7DG78;777D77/.G6D7D7777D662DGGGF2.GFGGG6GGGD7GDDFG-7CJHA?<<AJH?74((((040445&48<3,30)0!#)40)5,CC8;+5##             ",
"             7D7777;777.992DGDD7G777772.K22..........6G2G6DD77DGK1;HHAAA<<<?M?055400&&,:8C?JJHH,50)0*#455,J;&9:?35#             ",
"            96D79>7C7G.7;7DGDDDDD7DD761->..K.K.-/>.>-.2K6GFD7DD2>;EEEEHA??A?<H?98&&58CCJEJAAAHH;:%400!#79J:)):?+;4)#            ",
"           :7DD9766?J::C9GGDDDDDD7D2G>K>.>-->-/77--3F-->K2GGGF66K7;:8,,9AAA?<<AEJ?;,CH?A???<<AHJ:504)0!!J:540,,:::5!#           ",
"           8DD897DD7;N?9G.2G.22.>G.------7?:K/:AA73?A8/>->G2GG6G.-/05,;CAHJJA<?CCJ;;EHHAMMECAA<A,)04440#+,)05)<E9;75#           ",
"          9DD7877D7G666D2G2.9;?;;;:998763??A:6H<A8:A<?3II>222F62KK149JMB##!<HJHHM;8ECC?+8:;JA<<A:5040))/#!4),CC+,,?()#          ",
"         ;77D777777D@KODFF.9JNNNNJJJJJJEHH?<??A<A8;<<?31>>KF.2F.>>/8JA#######?E?:038(())5559J<<C84044)440#B;E;:)))::5!#         ",
"         977777777DDK7OPODGCLQRRSTURTVVLLL<<AJA<?CC<B?31//----2K2-@HEC<#######??)4459;CC?:,5?EE:5(0444444)#C:)7:)7:;,)#         ",
"        :7778;9777PPGO##O=7ELWTTVVUXWYYZ[V<<CEC<ANH<?JC?;:8731---/9JEJJA#######M+5&?E<BBB?J:;EJ70((004)))0!$3))98?C:<5!#        ",
"        87779L:777G27OP!OF9JVRTTVVVTTRRWXUL<ANN<LSA<CLLLNJJJEC?;97CJEJHJB######A<)?A######BJC::0I/0((044))0#*%&;E?9,<,5#        ",
"       :DD77;G7:7;677F7ODF:JTSTVVVVTTTRTRXVHHLLAVVABLZ]^XRTVLLNJJJJJJJHEB######<C<JHA<#####!E,5/////1-(44)4)#;CC8(),8;4*#       ",
"       833@9J:;:G;;76GGD7G;JTRRVVVVVTTRVRURCAVLAVVAAL]_``Z]]]^YRTVLLNJJJA<B####BJEEJJJA#####<C0///0(/1/004)0!B?)5)$?<<85#       ",
"      ;7.3D9:HJ?8:9GFFD77D?NTVVVVVVTRRTTRTWLETLETV?ARYX_X``aXY_`Z]]ZYTVLLJJJA<B<EHJJJEJB#####H,4/(//((((0004)#,)&<A<<8;4*#      ",
"      9DD298-7;HJ;72DD7DD7CNVVVVVVVTTVTTRTURNTTJVVHVYRQYY`a`aXQQYXa^]][[ZYTVLNJJJJJEEEH######A85//////((00040!+?AA?*$:;,)#      ",
"      7777?H9778?926DD7777HLVTTVVVVTTTTTUTTYLLTNTVNTURRSWYX_``_YXX_`^```^][[[^UVLLNJJJHB#####?:5(((/(/(000/040#?:):,,?8:4!#     ",
"     :6778;9;;9677>@@F77D8ELRVTTVVVTTRTVRTTTTVVLWVVQTTTURRUYa``Ya```^^Z^Z^^^Z][[[ZYTVLNJEA<B#<:)500(((0000(/40*B9)*%,$);6)#     ",
"     7G777.-7CJ;8G.&*F=OD9JVTVRVVVVTTRTTTRVTTRTTUWYURRRRURUWQXa_XX```^^^Z^ZZZ^^^^]][[]XTVLNJEEC8,)5540(0000004'!?<*)))+:95!     ",
"    ;G77879?HC:8866>>6D7D:JVTVTTVVVTRRURTRVTTTTUWYaXXWRURRURRWYXX___a^^^ZZ^^a^ZZZZ^^ZZ][[[`TVLNJE?:8&45540000)0!+:,+B:?B;/*#    ",
"    9D779?H?8G-7726.=FD7G;JVTVTTTVVRSRRTVUTTTTRUQX_a_QUURRUTTRWQQX_a`^Z^ZZZ`aZZZZ^Z]ZZZZZZ][[[aTVNJJH?93)5400(0'!AA<+:A$<,)!    ",
"    8D77?J:G..696K2.PPO7G;NVTRVTTRRRURRTTRTTTRWYXX_a_QTWWUURRUUWWUX_XXa``Z^^^^ZZ^^ZZZZ]]ZZZZZ]][[]SVLNJE?8&50(0(!:B)$AB!8:5!    ",
"   ;7779;9;?;;;7>.G=P!OO=?NUTVVTTRTTWRRQRRURUSWX_X_aYQQYYSWURRUUWUQ__X``^^^Z^^^^^^^Z^ZZZZZ^ZZ]ZZZ][[[^TVNJC8)0(0*!)$AB*)$;0)#   ",
"   :G787D.>7;J;G2GDP##OOOCNSTVVTTRURURUWUUUWQY_`XYYXWYXX_XQUUUUUWUUY__`^^^ZZZ`^Z^``^`^^^^ZZ^ZZZZ]ZZZZ][[]TLJ95(0&!+AB!)));,)#   ",
"   9G7979?;7.9926=OP##OPOHLSRVVTTRURRTTURUWQYYYYXYYYYWYYaYYWUURRSUUSYXa`ZZZZZ^^Z``^^^^^Z^^ZZZZZZ]]]]]]ZZ][]LE34)/!B;<:+*):85!   ",
"   76D7:JNCN779.6D!POPOO7ELURSTTTTTRRUTURUWQ_QQY_YXQQYXXXQXYWQQUUUUWWX_^ZZZ]ZZ``a`ZZZ^`^`a^ZZ]ZZZZ]]]]]]]Z[TJ8500*!)$+:?B8:5!#  ",
"  ?6ID8H:G3::98GFO#PFPDF7JLRTQRTTTTRRRTRQYWQ_QSQaYYQWQYQWYXYQ__WUUQUWSY]^ZZZZ^`_a`^^^`a^`a_^Z^Z^^ZZ]]ZZ]]Z[SJ9504%!$)$:AA::()#  ",
"  ;33@:;DD.6;:7G2.DDGPG.8JLTTXRRTTURRTRUUWWUWWUWYXQYWQQSQXYXY_aWWRUURTQZ^ZZZZ^`__`^aXX_aa```^^`a`^ZZ]``Z]Z[SJ950)0!<AA?B+B<6)!  ",
"  911&<9777D?<P2.2I>2KG-8JLVVUURTTTVTRTURUURUUWSQ_WSWWWYYXYYX_aaXURUUUa^^^Z^^Z^``X_a___a`aa``^```^Z]Z`a^ZZ[RJ85000*8?$'))):84!  ",
"  9KG=:9D7G8H9DK>>11>>F.7JLTTRXXQTUTTVVRURURSUUWYXUUUUQX_XXYYX_aYSUUQX`ZZ^Z^^Z^``_Xaa_a_aaa`^ZZ^^ZZZZ^`^]Z[VJ750(/*$&))%%)894*  ",
"  7.@,7;7G7CC822K>..>K26FCNVTRYXYQ_UUUTQUUSUWWXQWQUUURWX_YQQQWYYXUUWX`^ZZZ^ZZZZ^`_X_aX_XX_a`Z]]Z^ZZZ^`^Z]Z[VE340((&!0')''),:4*  ",
" C7FD7#BNCJ;:7DG2G6.G>16-8JJJNNNLLLLLLLVVVTS_^^_UUQSUQQXXYWQWWUUXWWYa^^^Z^^ZZZZ^^aX__XXXYXX`Z]]]]]]]Z]]]]Z[LC(40(1&*''''')$;/*! ",
" ?63,7P=:?:6:777>1F222-..-7:;?CCCHCHHEEJJJJNLLVR`YQYXYX__YWQWQUUWWYX`^ZZ^^^`^Z`^^`aaaa_YYX`Z]]]]]]]]aTa[[[[L?400((1*%'''))%;I)# ",
" ;3I&,F6/316;766F>>>12>>.>/-.-G.GDGF677789:;CEJJLRXYYYX_XYQQYURUUQ_`^^^^`^^^Z^^^^^```aXXYa^Z]]]]]]Z^`LNLLLVJ:54(1(1$%0)'''):@)! ",
" ;13,,6G6667:7@@DD11>2KI1/>G2KDGFG..-/.--.-->68;ENR_YX_aXWXXWURUWX`^^`^^ZZZZZ^Z`_a`^``_`^^ZZ]]]]]]]Z]]VAA??A?9@01(1$*))'))):,4* ",
" ;63,,366367:766G6G21.>I111-I>2F.GGG.>-.>FF>...-7EL`_X_aYURUYQUQQa^^```^^Z^ZZ^`_X``Z``^^ZZZ]]]]]]]]]Z][ULABB<AA,4((%+8)))%):,5* ",
" :6D,@K$P667:777633>1K211>>1>2>.>6GG.G.F->.1>FGG-?NS^XQaaUUWWQQX_`^^`_a^^^ZZ^^Z`__a^^^ZZZZZ]]]]]]]][[[[[aVL<<<A;5(('BH<B)))975* ",
" :(@,@3=@6G9:G6D@3K>1K21III11>I1-2G.GGG.-..>>G..-;NS_aYWYRRUWQXa^`^^`^```^Z^Z^^^aXa`^ZZZZZZZZ]ZZ]Z[VLVVVLVNH:?A84((%++8A<+)875* ",
" :13$@333369:766@36GKI11I11I11-.-1G.>G........G.FCL^YXXRUURRWXa^^```````a^^^^Z^`_X_aa`^^Z^ZZZZZZ]]]YLHAA<AAC:,(4/(0&$),++M:875* ",
" :13$@I33368976@@33331I>1--1I>.K1-2>1.G2FG....F-8JV^QYXYWURUY_a```^`^``^`^Z^ZZ^`a]]]Z``^`^ZZZZZ]]]Z][WLA?<<<A;40((0&$',?A?+875% ",
" :13$@332369:G76@33K>>>>>..-1.D->.>>..GG.G..>1G.;JRXUSURWUWYaXa`a````^`^^^^ZZ^``ZTVVQZ[]^^ZZ^Z]]Z[ULLVRVLA<<<?(0/(0%,?A?B*)875$ ",
" :36$@3@P@G9:6G663K&=K11.!!.>P#G=---....-6G.K.GGCL_QWWWUQXXaa_``a`^````^^Z^^^^aZLJJJJLVQ[[Z^^Z]]]Z]VAACLVLH<;,4(000'+A+%)')875B ",
" :13$G2P#=28:26@@KK&=6.2.PO.-.PDPP..-/--1>G..F.8JVaQQYYX_aa_aa``a`^^`^^^^^^^Z`]TJ;,8:CJJLVZ[]ZZZ]Z][UCA<AHC&5400000%,&)))')875+ ",
" :13P!=G=@.7;GFOP2>KF622>.=.--F.==D=->..122..6.:JRXYQXWY_a`aaa`a``a`^Z^^^^^Z^^]LC6//017;EJNVY[[^`Z]Z[XLA<<A?,4000(0'+:,,$$B9,5+ ",
" ;16PP@6KF!+;7G76.>3@>2GFP!>1K.PP!P=.=GFF226...CL`YX__YYa__a_`a_aa_```^^^^`^^]YN;P=K1//038?JJLR][]ZZZ][UL<BA:5(00(('8MAMAA<8,5+ ",
" ;36$,@33F!O;77DD=D.>>>6GDG.>>.=###PPOPPG2G66.7EVZWYX_QQ__a_`aaaYX_`aa```^^^`[VJ9!PK1I/004/7;EJLV`[[]`X[VJAA85/(0(1%8+,++::864+ ",
" ?36$,333@77;776O!OD@>1>>.!!DP!P###ODP##=DF.2-9JRaYYYYXYaX___X_aYa_a```_`ZZ^`[LE6.F>--76/1/006:CJNLT`][]LC87400(001%:,))))$93)+ ",
" C76$,3@6@D!;76=O##O@K>->-PPF..=P!O=>=PPD!PF.>?NYQYQQWQX_XYXYYYXY_YXaa`^Z^^`^^NC%P--6;;3I11>1//38;EJNLVLJ9550)00((1&;?&)**):I'B ",
" C7I$$3366D!;8.GOPPO.>II.KF...>&.PPF>FGGO#PF.DEL^YXQW_XX_YQYYYYXY_WQXa^^`ZZaZQJ<'=9@LC101->-/1>04439?CEH:0((00///11@,,%)'0&:4%B ",
"  8/&$@3667F:9.FFO=F>>>KKFD2.->K.PPF2....G==.9JT`WSWQYYYWURQQYXXXYQXa``a`Z^^]TJ957H;J822>>---->11004/3@340/((((/111,C8+$%,895$  ",
"  9/3*@333638;G63>>>>@K>2GD2-.==G.DF.>.>1KPP-;NQWRURQQSURRTTUW_XQYXXXa``^Z``[VJ75:JJC7;@1>1>->11(0(1((/0((0////0(I17CHMMA<884,  ",
"  :13*,333337;D@32>>KK1..>>-.G!#OFK..K2.->..6HL`WQYYQYYRRRURUUYXQQQYXX`_^Z^`[LE34?JHCC:401->1I111///(11((/I1(/(/0(-9,&,8;<875+  ",
"  ?@3*$6633@3;7GG61>>1>2>..==DP!D.>FP=FGK.!P8JV^YXa_XYQURUUQWWWWUURRXaXY`^``]LC(5;HHEJ831/11I1((I(11331((((11I(0013;,4')*+8@/B  ",
"  C6I$$33@3@@;9.2>1>K1>>.>F!!F.=.2>F!PP!K.##;JU_YX_XQWSRUWQQWYWUWRRW___Y_^`^`N;0,:AAAJ8?,4//0(1(/I33>>((0(00I(I(/13;?&'***901B  ",
"  J7/&!33@3GG8;.@2>>>>12.1.==.>.K2>>F.@@KK==CLa__X_YWYYUUUWYQY_YQSRUaaaXaa_^YJ:4?CA<<HCE74%%//(0013@63111111(01II330,%))*,85%B  ",
"   :/6!&I13G@6;D6K>I.>->1IK..=.G>G.122KKK3-7EV^YXQXXYQQQYXYYYWYYUQQUaXW_XXYZTJ858JE<BAJJ70!!/(I1011363K>111I10((1@&)))'*)+75$   ",
"   ;3F*$I113@.;8-K12.111I%&..#P..G.1222K.6-9JV`WYYYWURRWX_XQYQWQUUWUYXQaXa_]VE,0(:H<B?AH74III/I133313K33111110001@0(&))*)835+   ",
"   C@-**3133@.8;-1>22-11>=&.=P=K2266>K6@.P!;NSYSYYWWRRRRQ_YYWQYRRURRWaY_`_X]LH3005:JM?<H80I1&I/136@@@1>>1(((>(0(@340'))*$9/(B   ",
"   J8I@!&1316@3?DKKKG.>1...=!.K>>GG2>62..P!CLaWQYQUSRTRRUYXQWRRRWQRUUXQQaaX`L?1((07;:?AA:)%*#-/1K31K>((1100(1(01610')))),8/,    ",
"    ;13!$I13>3/:9.G>2F-1->.==>--->KI.22@2K7EV`QWQQWUTTTTUUWRURTUQYWUWSUUQaaQN;0I/I/056?<;)!>%I/1K>>1K2(0(0(00003600)))*)860+    ",
"    C3K*!313@3>7;.>11-1/1-&P.--2.1.>K.F!=-9JT`YXWWUTTRTTRRRRTRRRWQQWYWWUQYXRJ90111(107A<?////(1>>1(I(((((((0(0/630())))&800B    ",
"    J8/&!3I333G-:8-1111>-1K.>1-FG>>122.=G-;NSQWWUWSTVVTUURRTRURTUYYYQYWWXX^TJ8/31(/149A<;4(/(I>>1>11101((000((160(33&&',75,B    ",
"     ;(3!$33367-:;-->11>>/>.>-I.>.G1>2>2K3CLWWRRUWWTVVTRURTTUWRWWQWUUWUUYY^VE,/1I1114;<A94I/I&>K1>((I(-..11((/6341@&''%830B     ",
"     H7I&!@33>G9CL7-11-1K-K..>--->>>62>G>7EV_QQYQRUTVVTRTTTTTRUSQWYYQQQWYY^LH3/11I147H<C1/1II*3K1>11I(>!!.1((>G(031''),84%B     ",
"      :26!,F39CJ;?;>I111>>.-..--KG>2G2GG>8JV_QYXYWSTVVVTVVTTVTRSYX_YWYXWYYYLC(III3/3C<A94=.>>K>1>>>1((.P!.((16@41>('')8@5,      ",
"      C@I*!??J;7.6?7-11-11.>-2.->F2G2.2G-:JRWWYXXWURVTTTVTTTVTRQX__QQXXXYQSN;0I11/1?A?C(>!!=>>1>11KK11..>I1(>7(01((%)&840+      ",
"       90I#<C7G6-7C;.>-1>-.G-GG>>GGGGF..>?NUUWQYYUUQTTRTVVVVVTRSXX__YYYQQYRJ9500/6?A<A,/P##P-P&>I(1>>/((>-((G34011&%)8@0%       ",
"       C1I)!9/1-8C?::-2->I.GFG2.>GGGFG2.2CLYRWWWQYQQUVVTTTVVTTRWQYYXYXUUYaTJ;799;HA<A70K.=P.I3>>&>-!'/0-!!-@7((((>&)@84/,       ",
"       J8/K!+76;;;;-?7-11.G6G.G2>GG.FGG.6ELYRUSSYYQWWTTTVTTRUUUQWXXYXXQWQ^VHAEEEH?AH8031K>>>(1>P!KK>1(11%PK731(((3')8641        ",
"        C3I%!CC9-:;-7;2->G>G2>GG.6GGGDG.7JVQURSWWYWRRTTTVTTUYQSWYX_aX__YQ^LAB<<?AAC,03@36KI>1>>.>11K11I(I-76((>1(')@7//B        ",
"        J903!B:-1?:.1;:-21KG>KGGGFGG..D-9JVWRUQQWSURRTVVTTTUYYQWYYXaYX_XYYLJHMH?;81/33@66K.P.!!..>(111(((671311(0%'834+         ",
"         C3/%#72>C9/@CC8-3>K2DG2GGG>>D7.9JTUWWWUWWRTTTVVTTRUQWWUWXXY_XX_YRNH;9,104/IK.6@@K&#.!P.!=I0(1IIK710111(('7703B         ",
"          ;0I*!K@C76?;:?7->-KFG>GG.2D77.:JUUUWWWURTTTTTVTRRWUURUUYYYY_YXaTJ9)!/1III36PP266>>->.=!&/(1(I>730/I(3&'@8(IB          ",
"          J7/I#*6C:?8.-7?G.K.GG.2FGDDD7.;NSRWWQYWUTRTVTTTUYWRRRUWWWQWYaQ]VJ7(&II*'>32!PF622>(>>>>>(I1(-761(11((&&834,B          ",
"           C6I&#,J;G-G3-8?6.G6GG.DGDDD7.?NSRURUWWUTTVVVTRWQQURRRQYQQYXaQ_LC1II/I!%>>K6.G@331>111>11/1-7701(33(&17,43B           ",
"            :03*#9G>6K>2/8;2G>KDGGGDDD7G?NRRURUUURTTVVVTTUUUUTTRYYXQQ_YaSJ;01III>K>>23KF3-K>(1>3>>11-7640/011&'@70/B            ",
"            H70K!!7D613GK6;;G6@DGFGGDD7G?NRTRRQWSRTTVVVVTWWWRTRUYXXQYXY`VJ80>!%/1.>12K>6KK231K>1I/1-G991/113((3810,B            ",
"             C3>6#$D3K6.9C;N;2GDGGGGDD7G;NRURRWWWRTVVVVTUWYQTTRUYQWWQYXZLH3/I%&1>=P>>G.2322>KK1K>I>78;?70131(17@03B             ",
"              ;113#P61F.?;1:N;DGDGGGGDD>;JRQURUSSTTVVVVVUUQUTTRQYUUWWW__N;01III2.P#=.!P266@P.>11>>79;301/1>117,/0B              ",
"              J:/K=#P6;.9C>8;9?7.GGGGG7D9JV`WRRURTTVVVVTRUQRRRUWUQWWQW`VJ80111KPPD=.F=2=PF=#=K3>@79;E80((>317,/I@               ",
"               J9/K$#8C.DC9GG6LL8.GFDDDDGCNRaRTRRTVTVVTTRWWRUWQWQQYQQW`LH3(I11F!!DF6P=.>P>..22K67:;1:J70(117,/038               ",
"                E8-2P#?9-;?--8HLC9..FDGGG8JNVSWURTTTTVRUUQWRQYWQXYQQUXTJ:/P>>36FDP6F!PG.K33.>>798;:0>;J73667-(I8                ",
"                 H7-7P#?;H:-7E86;C;7.GDDDD9HJLVTUSURTTRWWUUQYYQYXYQQYaLH6*##=6@6FDG6FFP=K31>G7:?C863/3?H;7,/1/8                 ",
"                  C9DFP#89-@CH8/8;7L9G.DDDG7;CJJNLVVUWQXQQWQWQYYYQQa_LJ9(P#!G66@6776GP#!=K>788:33K-(3-8?7610/8                  ",
"                   A:-6,#P:?;7L:7F-LN?8GGD7DGD8;?EJJNLVVTS_^^`Z^`^_RLJ:01K.=.=G6D7P!DP#!.G8:,:;38;?8(1776>1I8                   ",
"                    A;@7O#BJ8.D9.-7C9CL;8GDD7DGGG78:?CEJJNLLLVVVVLLJE8/1I%*F=!GFGG@=F7OD99;C@8ECC;?C13761/I8                    ",
"                     A?7D7#+L9D7.KC948L7;;9.GD777DFG7799;;CHEEJJEEC:6011I&P6GG26DD6FFP!:71,;:/7@147;376>/39                     ",
"                      A?777!!;C9-:J:7;C.-7;;8GGD77779777DGK@6777,63/13113K662F@FO!O79:<;3116C6/767;773I>@:                      ",
"                       A;GD7P#+79C7:N;7.7;;LJC:87DD777777D6>11II1/133I133@6622.G!#89,7?C3@3-9;/;C;7631/7:                       ",
"                        E?7G7=#!?C>7C..7E;778?N;;;97G6GD7DG2@3333333III>@.6K679:::L?7>7E9-3(6?1376331>8                         ",
"                          C8G77P#BD7CD.??.GG.7?.79:;;:977D.>-/////////367799;?9;N86C?16;C->-9:>7632>6:                          ",
"                           E:DD7=!#PC9.C:D77GG762>-7CC9?L?;:9998888999::;CCC:?:3C80;80@8J;9;;6731>I7<                           ",
"                            JC7GFDP#!8.:CDD8?:7DD66-;;59H:38C?;C??C93636C88H337/;?;J9--K9?;973>>/69                             ",
"                              H?:DF7P#!=;;D-:E8DD66-9?11C7/3?61C91994K369/6C86G(8J79E?97@663K1->7<                              ",
"                                M;G.DDP!!B;;N:D7D6@-7C17J:5994/?8033@@@66G6C:3D36C8/7;;87,3>->,:                                ",
"                                 EC9GGFDP!!+87D7F2@>6C7;;?3?1/1CC;;366@67G2;;>636CC8,,,@6@1>7:?                                 ",
"                                   J?9D.FD=!!!!P@6F6>?H,6C;7/1/C8(336666G72:E96K79,,,76@>67:?                                   ",
"                                     JC:7..FF=*!!!$P-:90IC;0II1C9(3;8266667;<9,,,=@662168;                                      ",
"                                       JC;86>>.2@P!!!!!**B,&&19?;:;;,,,,,,,,$P=@6K-6679;                                        ",
"                                          JC:8G>-F66@$**!!!!!!!!!$$$$$$$PP=@@F2>.679;?                                          ",
"                                             JC;9773IIIII3333&&3=@@DGGFK2.K.K678:;C                                             ",
"                                                 HC;:87631II///IK.K...266789;;?                                                 ",
"                                                      HCC?;;:99999:::;;??C                                                      ",
"                                                                                                                                "
};
